assets/luts/filtro.CUBE
#Generated by wwww.onlinelutcreator.com 
LUT_3D_SIZE 8 
DOMAIN_MIN 0.000000 0.000000 0.000000
DOMAIN_MAX 0.903226 0.903226 0.903226
0.003922 0.000000 0.000000
0.027451 0.003922 0.003922
0.105882 0.011765 0.000000
0.196078 0.007843 0.007843
0.309804 0.000000 0.011765
0.466667 0.000000 0.015686
0.654902 0.003922 0.019608
0.839216 0.000000 0.023529
0.019608 0.019608 0.011765
0.023529 0.023529 0.023529
0.101961 0.043137 0.015686
0.192157 0.047059 0.011765
0.309804 0.047059 0.011765
0.462745 0.007843 0.011765
0.647059 0.000000 0.015686
0.843137 0.000000 0.019608
0.090196 0.098039 0.094118
0.098039 0.090196 0.094118
0.098039 0.098039 0.105882
0.188235 0.129412 0.101961
0.356863 0.168627 0.082353
0.513725 0.172549 0.066667
0.698039 0.156863 0.054902
0.850980 0.117647 0.050980
0.180392 0.188235 0.184314
0.176471 0.176471 0.176471
0.188235 0.180392 0.184314
0.192157 0.192157 0.192157
0.270588 0.227451 0.219608
0.529412 0.294118 0.160784
0.733333 0.313725 0.133333
0.882353 0.298039 0.129412
0.313725 0.321569 0.309804
0.321569 0.321569 0.321569
0.333333 0.325490 0.329412
0.337255 0.329412 0.333333
0.341176 0.349020 0.345098
0.392157 0.384314 0.388235
0.650980 0.443137 0.372549
0.882353 0.505882 0.317647
0.486275 0.486275 0.486275
0.470588 0.470588 0.470588
0.482353 0.474510 0.478431
0.482353 0.482353 0.482353
0.486275 0.490196 0.498039
0.505882 0.498039 0.501961
0.549020 0.549020 0.549020
0.745098 0.588235 0.556863
0.643137 0.643137 0.650980
0.639216 0.639216 0.639216
0.639216 0.647059 0.643137
0.643137 0.643137 0.643137
0.650980 0.643137 0.647059
0.650980 0.643137 0.647059
0.654902 0.654902 0.662745
0.678431 0.678431 0.678431
0.756863 0.756863 0.756863
0.752941 0.752941 0.752941
0.756863 0.756863 0.756863
0.756863 0.756863 0.756863
0.756863 0.756863 0.756863
0.752941 0.752941 0.752941
0.745098 0.760784 0.756863
0.760784 0.768627 0.764706
0.011765 0.011765 0.011765
0.019608 0.019608 0.019608
0.098039 0.023529 0.047059
0.196078 0.000000 0.043137
0.321569 0.003922 0.039216
0.478431 0.000000 0.050980
0.674510 0.000000 0.054902
0.858824 0.003922 0.070588
0.031373 0.023529 0.027451
0.043137 0.039216 0.031373
0.117647 0.039216 0.043137
0.196078 0.031373 0.039216
0.313725 0.011765 0.043137
0.474510 0.003922 0.050980
0.674510 0.000000 0.054902
0.854902 0.000000 0.066667
0.109804 0.109804 0.109804
0.109804 0.109804 0.109804
0.109804 0.117647 0.113725
0.227451 0.149020 0.113725
0.360784 0.152941 0.098039
0.525490 0.152941 0.082353
0.713725 0.105882 0.086275
0.874510 0.050980 0.094118
0.184314 0.192157 0.188235
0.180392 0.180392 0.180392
0.188235 0.188235 0.188235
0.192157 0.200000 0.196078
0.317647 0.227451 0.203922
0.560784 0.290196 0.160784
0.737255 0.298039 0.141176
0.898039 0.278431 0.141176
0.317647 0.317647 0.317647
0.321569 0.321569 0.321569
0.325490 0.333333 0.329412
0.333333 0.333333 0.341176
0.352941 0.345098 0.356863
0.423529 0.392157 0.384314
0.690196 0.454902 0.360784
0.894118 0.498039 0.317647
0.482353 0.482353 0.482353
0.470588 0.470588 0.470588
0.474510 0.474510 0.474510
0.482353 0.474510 0.478431
0.482353 0.482353 0.482353
0.501961 0.501961 0.494118
0.549020 0.549020 0.541176
0.780392 0.592157 0.537255
0.639216 0.639216 0.639216
0.639216 0.639216 0.639216
0.643137 0.643137 0.643137
0.643137 0.643137 0.643137
0.643137 0.650980 0.631373
0.654902 0.654902 0.654902
0.650980 0.658824 0.654902
0.686275 0.686275 0.686275
0.756863 0.756863 0.756863
0.752941 0.752941 0.752941
0.752941 0.752941 0.752941
0.756863 0.749020 0.752941
0.752941 0.752941 0.752941
0.756863 0.756863 0.756863
0.756863 0.756863 0.756863
0.768627 0.760784 0.764706
0.043137 0.043137 0.043137
0.047059 0.047059 0.047059
0.062745 0.054902 0.058824
0.105882 0.105882 0.105882
0.321569 0.027451 0.149020
0.486275 0.000000 0.141176
0.670588 0.000000 0.125490
0.854902 0.000000 0.137255
0.062745 0.062745 0.062745
0.062745 0.062745 0.062745
0.066667 0.066667 0.066667
0.149020 0.101961 0.117647
0.317647 0.007843 0.121569
0.466667 0.000000 0.109804
0.662745 0.000000 0.113725
0.850980 0.000000 0.121569
0.109804 0.109804 0.109804
0.125490 0.125490 0.125490
0.156863 0.137255 0.125490
0.243137 0.125490 0.125490
0.368627 0.117647 0.121569
0.521569 0.082353 0.129412
0.698039 0.000000 0.141176
0.862745 0.000000 0.137255
0.200000 0.200000 0.200000
0.192157 0.192157 0.192157
0.203922 0.196078 0.200000
0.211765 0.211765 0.219608
0.368627 0.254902 0.200000
0.560784 0.266667 0.176471
0.733333 0.254902 0.164706
0.894118 0.239216 0.168627
0.337255 0.337255 0.337255
0.341176 0.341176 0.341176
0.345098 0.352941 0.349020
0.352941 0.352941 0.352941
0.368627 0.368627 0.360784
0.470588 0.415686 0.403922
0.725490 0.470588 0.352941
0.890196 0.490196 0.333333
0.490196 0.490196 0.490196
0.478431 0.478431 0.478431
0.482353 0.482353 0.490196
0.490196 0.490196 0.490196
0.490196 0.498039 0.494118
0.517647 0.509804 0.513725
0.576471 0.552941 0.552941
0.803922 0.603922 0.521569
0.654902 0.654902 0.654902
0.650980 0.650980 0.650980
0.647059 0.654902 0.650980
0.654902 0.654902 0.654902
0.654902 0.654902 0.654902
0.658824 0.650980 0.654902
0.662745 0.666667 0.682353
0.690196 0.690196 0.698039
0.764706 0.764706 0.764706
0.756863 0.756863 0.756863
0.756863 0.756863 0.764706
0.756863 0.764706 0.760784
0.760784 0.760784 0.768627
0.760784 0.752941 0.772549
0.756863 0.764706 0.760784
0.776471 0.772549 0.764706
0.090196 0.090196 0.090196
0.098039 0.098039 0.098039
0.101961 0.101961 0.101961
0.121569 0.121569 0.121569
0.180392 0.180392 0.172549
0.368627 0.211765 0.254902
0.666667 0.000000 0.278431
0.843137 0.003922 0.254902
0.101961 0.101961 0.101961
0.098039 0.098039 0.098039
0.105882 0.105882 0.105882
0.121569 0.121569 0.129412
0.176471 0.180392 0.188235
0.400000 0.176471 0.250980
0.666667 0.007843 0.250980
0.847059 0.003922 0.239216
0.156863 0.156863 0.156863
0.160784 0.160784 0.160784
0.176471 0.176471 0.176471
0.192157 0.192157 0.192157
0.266667 0.243137 0.250980
0.513725 0.149020 0.254902
0.690196 0.003922 0.227451
0.870588 0.000000 0.239216
0.196078 0.196078 0.196078
0.192157 0.192157 0.192157
0.223529 0.215686 0.227451
0.286275 0.247059 0.243137
0.403922 0.223529 0.223529
0.556863 0.200000 0.219608
0.725490 0.188235 0.227451
0.886275 0.152941 0.227451
0.349020 0.349020 0.349020
0.356863 0.356863 0.356863
0.376471 0.376471 0.376471
0.396078 0.396078 0.396078
0.392157 0.407843 0.411765
0.552941 0.447059 0.411765
0.745098 0.482353 0.376471
0.890196 0.462745 0.372549
0.505882 0.505882 0.505882
0.490196 0.490196 0.490196
0.501961 0.501961 0.501961
0.513725 0.513725 0.521569
0.525490 0.517647 0.521569
0.545098 0.525490 0.541176
0.635294 0.576471 0.564706
0.843137 0.623529 0.533333
0.658824 0.658824 0.658824
0.658824 0.658824 0.658824
0.662745 0.662745 0.662745
0.666667 0.666667 0.666667
0.666667 0.666667 0.666667
0.662745 0.670588 0.666667
0.674510 0.674510 0.674510
0.701961 0.709804 0.698039
0.768627 0.768627 0.768627
0.760784 0.760784 0.760784
0.764706 0.764706 0.764706
0.764706 0.764706 0.764706
0.764706 0.764706 0.764706
0.764706 0.764706 0.764706
0.772549 0.772549 0.772549
0.780392 0.780392 0.780392
0.156863 0.156863 0.156863
0.160784 0.160784 0.160784
0.168627 0.168627 0.168627
0.184314 0.184314 0.184314
0.200000 0.200000 0.200000
0.270588 0.278431 0.274510
0.403922 0.396078 0.400000
0.760784 0.321569 0.478431
0.160784 0.160784 0.160784
0.156863 0.156863 0.156863
0.164706 0.164706 0.164706
0.176471 0.176471 0.176471
0.192157 0.200000 0.196078
0.270588 0.270588 0.270588
0.439216 0.372549 0.396078
0.788235 0.270588 0.462745
0.219608 0.219608 0.219608
0.227451 0.227451 0.227451
0.235294 0.235294 0.235294
0.247059 0.247059 0.247059
0.266667 0.266667 0.274510
0.341176 0.341176 0.341176
0.541176 0.392157 0.443137
0.839216 0.258824 0.462745
0.266667 0.266667 0.266667
0.258824 0.258824 0.258824
0.282353 0.282353 0.282353
0.298039 0.298039 0.298039
0.325490 0.317647 0.321569
0.427451 0.392157 0.411765
0.705882 0.309804 0.435294
0.878431 0.160784 0.380392
0.356863 0.356863 0.356863
0.356863 0.356863 0.356863
0.380392 0.380392 0.380392
0.419608 0.419608 0.419608
0.478431 0.478431 0.470588
0.619608 0.447059 0.435294
0.749020 0.419608 0.419608
0.890196 0.396078 0.400000
0.501961 0.501961 0.501961
0.498039 0.498039 0.498039
0.513725 0.513725 0.513725
0.541176 0.541176 0.541176
0.560784 0.560784 0.568627
0.568627 0.568627 0.576471
0.709804 0.603922 0.560784
0.870588 0.627451 0.545098
0.658824 0.658824 0.658824
0.670588 0.670588 0.670588
0.674510 0.674510 0.674510
0.682353 0.682353 0.682353
0.686275 0.686275 0.686275
0.690196 0.690196 0.690196
0.698039 0.690196 0.694118
0.717647 0.709804 0.713725
0.772549 0.772549 0.772549
0.772549 0.772549 0.772549
0.776471 0.776471 0.776471
0.776471 0.776471 0.776471
0.776471 0.776471 0.776471
0.768627 0.776471 0.764706
0.780392 0.780392 0.788235
0.784314 0.792157 0.788235
0.243137 0.243137 0.243137
0.250980 0.250980 0.250980
0.262745 0.262745 0.262745
0.270588 0.270588 0.270588
0.286275 0.286275 0.286275
0.305882 0.305882 0.305882
0.392157 0.400000 0.396078
0.525490 0.541176 0.545098
0.239216 0.239216 0.239216
0.239216 0.239216 0.239216
0.250980 0.250980 0.250980
0.262745 0.262745 0.262745
0.278431 0.278431 0.278431
0.305882 0.305882 0.305882
0.400000 0.400000 0.400000
0.545098 0.545098 0.545098
0.309804 0.309804 0.309804
0.313725 0.313725 0.313725
0.325490 0.325490 0.325490
0.337255 0.337255 0.337255
0.349020 0.349020 0.349020
0.368627 0.368627 0.368627
0.458824 0.450980 0.462745
0.580392 0.572549 0.576471
0.364706 0.364706 0.364706
0.352941 0.352941 0.352941
0.368627 0.368627 0.368627
0.384314 0.384314 0.384314
0.400000 0.400000 0.400000
0.423529 0.423529 0.423529
0.509804 0.509804 0.509804
0.670588 0.596078 0.619608
0.447059 0.447059 0.447059
0.454902 0.454902 0.454902
0.470588 0.470588 0.470588
0.498039 0.498039 0.498039
0.521569 0.521569 0.521569
0.537255 0.537255 0.537255
0.615686 0.600000 0.603922
0.831373 0.529412 0.607843
0.513725 0.513725 0.513725
0.501961 0.501961 0.501961
0.517647 0.517647 0.517647
0.541176 0.541176 0.541176
0.580392 0.580392 0.580392
0.631373 0.627451 0.619608
0.756863 0.596078 0.580392
0.886275 0.556863 0.549020
0.654902 0.654902 0.654902
0.662745 0.662745 0.662745
0.670588 0.670588 0.670588
0.686275 0.686275 0.686275
0.705882 0.705882 0.705882
0.717647 0.717647 0.717647
0.717647 0.717647 0.717647
0.780392 0.737255 0.729412
0.772549 0.772549 0.772549
0.768627 0.768627 0.768627
0.776471 0.776471 0.776471
0.784314 0.784314 0.784314
0.796078 0.788235 0.800000
0.792157 0.792157 0.784314
0.800000 0.792157 0.803922
0.807843 0.800000 0.803922
0.384314 0.384314 0.384314
0.380392 0.380392 0.380392
0.396078 0.396078 0.396078
0.411765 0.411765 0.411765
0.423529 0.423529 0.423529
0.439216 0.439216 0.439216
0.466667 0.466667 0.466667
0.545098 0.545098 0.545098
0.384314 0.384314 0.384314
0.380392 0.380392 0.380392
0.388235 0.388235 0.388235
0.403922 0.403922 0.403922
0.419608 0.419608 0.419608
0.439216 0.439216 0.439216
0.466667 0.466667 0.466667
0.545098 0.552941 0.549020
0.447059 0.447059 0.447059
0.450980 0.450980 0.450980
0.462745 0.462745 0.462745
0.474510 0.474510 0.474510
0.482353 0.482353 0.482353
0.490196 0.490196 0.490196
0.513725 0.513725 0.513725
0.580392 0.580392 0.580392
0.501961 0.501961 0.501961
0.490196 0.490196 0.490196
0.501961 0.501961 0.501961
0.513725 0.513725 0.513725
0.521569 0.521569 0.521569
0.533333 0.533333 0.533333
0.552941 0.552941 0.552941
0.619608 0.611765 0.615686
0.564706 0.564706 0.564706
0.560784 0.560784 0.560784
0.576471 0.576471 0.576471
0.592157 0.592157 0.592157
0.603922 0.603922 0.603922
0.611765 0.611765 0.611765
0.615686 0.615686 0.615686
0.666667 0.674510 0.670588
0.607843 0.607843 0.607843
0.596078 0.596078 0.596078
0.607843 0.607843 0.607843
0.623529 0.623529 0.623529
0.650980 0.650980 0.650980
0.666667 0.666667 0.666667
0.678431 0.670588 0.674510
0.733333 0.725490 0.729412
0.654902 0.654902 0.654902
0.654902 0.654902 0.654902
0.662745 0.662745 0.662745
0.674510 0.674510 0.674510
0.698039 0.698039 0.698039
0.725490 0.725490 0.725490
0.752941 0.760784 0.756863
0.862745 0.749020 0.733333
0.760784 0.760784 0.760784
0.756863 0.756863 0.756863
0.764706 0.764706 0.764706
0.772549 0.772549 0.772549
0.792157 0.792157 0.792157
0.811765 0.811765 0.811765
0.827451 0.819608 0.823529
0.831373 0.831373 0.831373
0.572549 0.572549 0.572549
0.576471 0.576471 0.576471
0.576471 0.576471 0.576471
0.588235 0.588235 0.588235
0.596078 0.596078 0.596078
0.600000 0.600000 0.600000
0.607843 0.607843 0.607843
0.623529 0.623529 0.623529
0.580392 0.580392 0.580392
0.576471 0.576471 0.576471
0.580392 0.580392 0.580392
0.592157 0.592157 0.592157
0.600000 0.600000 0.600000
0.603922 0.603922 0.603922
0.607843 0.607843 0.607843
0.631373 0.623529 0.627451
0.607843 0.607843 0.607843
0.611765 0.611765 0.611765
0.615686 0.615686 0.615686
0.619608 0.619608 0.619608
0.627451 0.627451 0.627451
0.631373 0.631373 0.631373
0.635294 0.635294 0.635294
0.643137 0.643137 0.643137
0.650980 0.650980 0.650980
0.639216 0.639216 0.639216
0.647059 0.647059 0.647059
0.650980 0.650980 0.650980
0.654902 0.654902 0.654902
0.654902 0.654902 0.654902
0.658824 0.658824 0.658824
0.662745 0.662745 0.670588
0.682353 0.682353 0.682353
0.686275 0.686275 0.686275
0.690196 0.690196 0.690196
0.694118 0.694118 0.694118
0.698039 0.698039 0.698039
0.701961 0.701961 0.701961
0.698039 0.698039 0.698039
0.698039 0.698039 0.698039
0.713725 0.713725 0.713725
0.709804 0.709804 0.709804
0.709804 0.709804 0.709804
0.721569 0.721569 0.721569
0.733333 0.733333 0.733333
0.733333 0.733333 0.733333
0.729412 0.737255 0.733333
0.737255 0.737255 0.737255
0.721569 0.721569 0.721569
0.725490 0.725490 0.725490
0.733333 0.733333 0.733333
0.741176 0.741176 0.741176
0.752941 0.752941 0.752941
0.776471 0.776471 0.776471
0.792157 0.792157 0.792157
0.792157 0.792157 0.792157
0.760784 0.760784 0.760784
0.756863 0.756863 0.756863
0.764706 0.764706 0.764706
0.768627 0.768627 0.768627
0.788235 0.788235 0.788235
0.803922 0.803922 0.803922
0.839216 0.839216 0.847059
0.878431 0.862745 0.850980
