assets/luts/filtro.CUBE
#Generated by wwww.onlinelutcreator.com 
LUT_3D_SIZE 32 
0.003922 0.000000 0.000000
0.003922 0.000000 0.000000
0.007843 0.000000 0.003922
0.007843 0.003922 0.000000
0.027451 0.003922 0.003922
0.047059 0.007843 0.003922
0.062745 0.007843 0.007843
0.078431 0.007843 0.007843
0.105882 0.011765 0.000000
0.121569 0.011765 0.000000
0.149020 0.007843 0.007843
0.168627 0.003922 0.007843
0.196078 0.007843 0.007843
0.219608 0.007843 0.007843
0.250980 0.000000 0.003922
0.278431 0.000000 0.011765
0.309804 0.000000 0.011765
0.345098 0.000000 0.011765
0.384314 0.000000 0.007843
0.423529 0.000000 0.007843
0.466667 0.000000 0.015686
0.505882 0.000000 0.015686
0.552941 0.003922 0.015686
0.603922 0.000000 0.011765
0.654902 0.003922 0.019608
0.694118 0.003922 0.011765
0.749020 0.003922 0.011765
0.796078 0.000000 0.015686
0.839216 0.000000 0.023529
0.878431 0.000000 0.035294
0.929412 0.003922 0.058824
0.976471 0.000000 0.050980
0.000000 0.003922 0.000000
0.003922 0.011765 0.007843
0.007843 0.007843 0.000000
0.015686 0.011765 0.003922
0.031373 0.011765 0.000000
0.047059 0.007843 0.003922
0.070588 0.015686 0.011765
0.078431 0.015686 0.015686
0.098039 0.019608 0.015686
0.117647 0.015686 0.011765
0.137255 0.015686 0.007843
0.168627 0.019608 0.015686
0.188235 0.015686 0.011765
0.211765 0.011765 0.007843
0.243137 0.007843 0.003922
0.270588 0.003922 0.000000
0.298039 0.000000 0.000000
0.337255 0.000000 0.011765
0.376471 0.000000 0.015686
0.411765 0.000000 0.019608
0.454902 0.000000 0.019608
0.505882 0.000000 0.015686
0.552941 0.003922 0.015686
0.603922 0.000000 0.019608
0.647059 0.000000 0.023529
0.694118 0.000000 0.023529
0.749020 0.000000 0.019608
0.796078 0.000000 0.015686
0.835294 0.000000 0.023529
0.878431 0.003922 0.023529
0.921569 0.000000 0.027451
0.964706 0.000000 0.043137
0.007843 0.007843 0.007843
0.003922 0.011765 0.007843
0.003922 0.011765 0.007843
0.007843 0.007843 0.000000
0.027451 0.011765 0.000000
0.050980 0.019608 0.007843
0.070588 0.015686 0.003922
0.082353 0.023529 0.003922
0.098039 0.031373 0.003922
0.109804 0.027451 0.007843
0.141176 0.023529 0.015686
0.164706 0.027451 0.019608
0.180392 0.019608 0.003922
0.207843 0.023529 0.000000
0.243137 0.015686 0.007843
0.266667 0.007843 0.011765
0.301961 0.011765 0.000000
0.337255 0.007843 0.007843
0.376471 0.003922 0.019608
0.415686 0.000000 0.019608
0.454902 0.000000 0.019608
0.505882 0.000000 0.015686
0.552941 0.003922 0.015686
0.600000 0.000000 0.019608
0.647059 0.000000 0.015686
0.694118 0.003922 0.015686
0.745098 0.000000 0.015686
0.796078 0.000000 0.015686
0.835294 0.000000 0.023529
0.878431 0.000000 0.031373
0.917647 0.000000 0.031373
0.972549 0.003922 0.047059
0.011765 0.011765 0.003922
0.015686 0.015686 0.015686
0.011765 0.015686 0.023529
0.015686 0.015686 0.023529
0.019608 0.011765 0.015686
0.043137 0.023529 0.011765
0.066667 0.023529 0.007843
0.082353 0.031373 0.007843
0.101961 0.027451 0.003922
0.125490 0.035294 0.011765
0.141176 0.035294 0.007843
0.164706 0.035294 0.007843
0.192157 0.039216 0.011765
0.215686 0.031373 0.007843
0.243137 0.027451 0.007843
0.278431 0.031373 0.011765
0.298039 0.027451 0.007843
0.337255 0.019608 0.007843
0.380392 0.011765 0.015686
0.419608 0.003922 0.019608
0.466667 0.000000 0.023529
0.505882 0.000000 0.019608
0.552941 0.003922 0.015686
0.603922 0.003922 0.015686
0.650980 0.000000 0.007843
0.698039 0.000000 0.011765
0.745098 0.000000 0.015686
0.796078 0.000000 0.023529
0.843137 0.000000 0.027451
0.882353 0.000000 0.031373
0.929412 0.000000 0.039216
0.980392 0.000000 0.054902
0.019608 0.019608 0.011765
0.015686 0.015686 0.015686
0.019608 0.027451 0.023529
0.015686 0.019608 0.027451
0.023529 0.023529 0.023529
0.043137 0.027451 0.023529
0.066667 0.035294 0.023529
0.082353 0.039216 0.015686
0.101961 0.043137 0.015686
0.117647 0.043137 0.015686
0.145098 0.047059 0.019608
0.164706 0.047059 0.007843
0.192157 0.047059 0.011765
0.219608 0.050980 0.015686
0.247059 0.050980 0.007843
0.274510 0.050980 0.007843
0.309804 0.047059 0.011765
0.345098 0.043137 0.019608
0.384314 0.035294 0.019608
0.423529 0.023529 0.015686
0.462745 0.007843 0.011765
0.505882 0.003922 0.007843
0.560784 0.000000 0.007843
0.603922 0.000000 0.011765
0.647059 0.000000 0.015686
0.705882 0.003922 0.019608
0.756863 0.000000 0.019608
0.800000 0.000000 0.015686
0.843137 0.000000 0.019608
0.886275 0.003922 0.027451
0.921569 0.000000 0.023529
0.972549 0.003922 0.047059
0.031373 0.031373 0.031373
0.031373 0.031373 0.031373
0.035294 0.035294 0.035294
0.035294 0.035294 0.035294
0.035294 0.035294 0.035294
0.039216 0.031373 0.035294
0.047059 0.039216 0.043137
0.066667 0.050980 0.047059
0.098039 0.058824 0.023529
0.129412 0.062745 0.031373
0.152941 0.062745 0.031373
0.180392 0.070588 0.027451
0.200000 0.066667 0.019608
0.227451 0.070588 0.023529
0.254902 0.066667 0.011765
0.278431 0.070588 0.015686
0.313725 0.066667 0.007843
0.341176 0.066667 0.019608
0.376471 0.062745 0.019608
0.419608 0.054902 0.023529
0.466667 0.047059 0.023529
0.513725 0.027451 0.019608
0.564706 0.003922 0.011765
0.607843 0.000000 0.015686
0.662745 0.000000 0.011765
0.709804 0.000000 0.019608
0.756863 0.000000 0.019608
0.803922 0.000000 0.019608
0.847059 0.000000 0.019608
0.886275 0.000000 0.023529
0.921569 0.000000 0.019608
0.960784 0.000000 0.027451
0.047059 0.047059 0.047059
0.047059 0.047059 0.047059
0.043137 0.043137 0.043137
0.047059 0.047059 0.047059
0.047059 0.047059 0.047059
0.050980 0.050980 0.050980
0.054902 0.054902 0.054902
0.058824 0.058824 0.058824
0.082353 0.062745 0.050980
0.113725 0.070588 0.047059
0.152941 0.074510 0.039216
0.184314 0.082353 0.031373
0.196078 0.086275 0.031373
0.219608 0.090196 0.023529
0.258824 0.090196 0.023529
0.290196 0.090196 0.023529
0.317647 0.094118 0.027451
0.352941 0.094118 0.031373
0.396078 0.086275 0.027451
0.431373 0.082353 0.019608
0.474510 0.082353 0.019608
0.517647 0.074510 0.019608
0.568627 0.047059 0.019608
0.615686 0.031373 0.015686
0.666667 0.000000 0.011765
0.717647 0.000000 0.019608
0.764706 0.000000 0.023529
0.807843 0.000000 0.019608
0.850980 0.000000 0.031373
0.890196 0.000000 0.027451
0.929412 0.000000 0.023529
0.968627 0.000000 0.031373
0.058824 0.058824 0.058824
0.062745 0.062745 0.062745
0.058824 0.058824 0.058824
0.062745 0.062745 0.062745
0.058824 0.058824 0.058824
0.062745 0.062745 0.062745
0.062745 0.062745 0.062745
0.066667 0.066667 0.066667
0.070588 0.070588 0.070588
0.098039 0.082353 0.070588
0.125490 0.082353 0.066667
0.164706 0.090196 0.062745
0.200000 0.109804 0.054902
0.231373 0.109804 0.039216
0.254902 0.105882 0.031373
0.278431 0.109804 0.035294
0.317647 0.117647 0.035294
0.349020 0.121569 0.035294
0.380392 0.113725 0.023529
0.423529 0.117647 0.027451
0.462745 0.117647 0.023529
0.505882 0.113725 0.023529
0.556863 0.105882 0.023529
0.607843 0.101961 0.027451
0.643137 0.090196 0.019608
0.694118 0.078431 0.019608
0.741176 0.058824 0.015686
0.792157 0.031373 0.023529
0.831373 0.011765 0.023529
0.870588 0.003922 0.031373
0.917647 0.000000 0.035294
0.952941 0.000000 0.035294
0.090196 0.098039 0.094118
0.094118 0.094118 0.094118
0.098039 0.098039 0.098039
0.101961 0.094118 0.098039
0.098039 0.090196 0.094118
0.101961 0.094118 0.098039
0.098039 0.098039 0.098039
0.101961 0.101961 0.101961
0.098039 0.098039 0.105882
0.105882 0.105882 0.105882
0.121569 0.113725 0.117647
0.152941 0.121569 0.113725
0.188235 0.129412 0.101961
0.239216 0.145098 0.098039
0.282353 0.152941 0.086275
0.313725 0.164706 0.082353
0.356863 0.168627 0.082353
0.388235 0.168627 0.078431
0.427451 0.168627 0.066667
0.470588 0.172549 0.070588
0.513725 0.172549 0.066667
0.556863 0.172549 0.066667
0.603922 0.168627 0.062745
0.647059 0.160784 0.058824
0.698039 0.156863 0.054902
0.737255 0.149020 0.054902
0.784314 0.137255 0.062745
0.827451 0.133333 0.070588
0.850980 0.117647 0.050980
0.894118 0.101961 0.054902
0.933333 0.062745 0.058824
0.952941 0.007843 0.035294
0.101961 0.098039 0.090196
0.117647 0.113725 0.105882
0.109804 0.109804 0.109804
0.109804 0.109804 0.109804
0.117647 0.117647 0.117647
0.113725 0.113725 0.113725
0.113725 0.113725 0.113725
0.117647 0.117647 0.117647
0.117647 0.117647 0.109804
0.117647 0.117647 0.117647
0.121569 0.121569 0.121569
0.133333 0.133333 0.133333
0.156863 0.141176 0.129412
0.196078 0.152941 0.129412
0.254902 0.160784 0.121569
0.298039 0.164706 0.117647
0.349020 0.188235 0.101961
0.380392 0.196078 0.094118
0.431373 0.200000 0.082353
0.470588 0.200000 0.070588
0.517647 0.203922 0.074510
0.560784 0.207843 0.074510
0.600000 0.196078 0.066667
0.654902 0.196078 0.066667
0.694118 0.192157 0.054902
0.749020 0.188235 0.062745
0.784314 0.184314 0.062745
0.823529 0.180392 0.070588
0.870588 0.168627 0.078431
0.901961 0.160784 0.074510
0.929412 0.133333 0.066667
0.968627 0.105882 0.058824
0.141176 0.133333 0.137255
0.137255 0.129412 0.133333
0.137255 0.129412 0.133333
0.137255 0.129412 0.141176
0.133333 0.133333 0.141176
0.137255 0.137255 0.137255
0.137255 0.137255 0.137255
0.137255 0.137255 0.137255
0.137255 0.137255 0.145098
0.145098 0.145098 0.137255
0.149020 0.145098 0.129412
0.149020 0.145098 0.137255
0.156863 0.156863 0.164706
0.180392 0.164706 0.168627
0.223529 0.168627 0.156863
0.274510 0.184314 0.152941
0.337255 0.196078 0.141176
0.396078 0.211765 0.133333
0.443137 0.227451 0.109804
0.482353 0.231373 0.094118
0.525490 0.235294 0.098039
0.568627 0.239216 0.098039
0.619608 0.235294 0.082353
0.662745 0.235294 0.082353
0.701961 0.235294 0.078431
0.749020 0.231373 0.082353
0.792157 0.227451 0.082353
0.831373 0.227451 0.086275
0.870588 0.215686 0.082353
0.905882 0.211765 0.082353
0.933333 0.192157 0.078431
0.972549 0.188235 0.086275
0.160784 0.160784 0.160784
0.156863 0.156863 0.156863
0.152941 0.152941 0.152941
0.152941 0.152941 0.152941
0.152941 0.152941 0.152941
0.156863 0.156863 0.156863
0.156863 0.156863 0.156863
0.156863 0.164706 0.160784
0.152941 0.156863 0.164706
0.156863 0.160784 0.168627
0.160784 0.160784 0.160784
0.168627 0.168627 0.168627
0.168627 0.176471 0.172549
0.176471 0.176471 0.168627
0.203922 0.188235 0.184314
0.235294 0.196078 0.192157
0.301961 0.203922 0.176471
0.360784 0.219608 0.164706
0.419608 0.239216 0.145098
0.482353 0.262745 0.133333
0.537255 0.270588 0.125490
0.580392 0.270588 0.117647
0.627451 0.266667 0.113725
0.678431 0.270588 0.117647
0.717647 0.274510 0.109804
0.756863 0.274510 0.109804
0.800000 0.270588 0.094118
0.839216 0.270588 0.098039
0.878431 0.262745 0.101961
0.909804 0.258824 0.109804
0.949020 0.250980 0.109804
0.984314 0.243137 0.117647
0.180392 0.188235 0.184314
0.180392 0.180392 0.180392
0.180392 0.180392 0.180392
0.176471 0.168627 0.172549
0.176471 0.176471 0.176471
0.176471 0.176471 0.176471
0.180392 0.180392 0.188235
0.180392 0.184314 0.192157
0.188235 0.180392 0.184314
0.188235 0.180392 0.184314
0.188235 0.188235 0.180392
0.188235 0.188235 0.188235
0.192157 0.192157 0.192157
0.200000 0.200000 0.200000
0.211765 0.203922 0.207843
0.227451 0.219608 0.223529
0.270588 0.227451 0.219608
0.325490 0.235294 0.211765
0.392157 0.250980 0.188235
0.458824 0.274510 0.172549
0.529412 0.294118 0.160784
0.584314 0.301961 0.152941
0.635294 0.309804 0.145098
0.682353 0.305882 0.141176
0.733333 0.313725 0.133333
0.764706 0.305882 0.133333
0.807843 0.309804 0.133333
0.847059 0.309804 0.129412
0.882353 0.298039 0.129412
0.917647 0.301961 0.133333
0.949020 0.294118 0.129412
0.980392 0.286275 0.125490
0.207843 0.207843 0.207843
0.203922 0.203922 0.203922
0.200000 0.200000 0.200000
0.196078 0.203922 0.200000
0.203922 0.203922 0.203922
0.203922 0.203922 0.203922
0.207843 0.200000 0.203922
0.207843 0.203922 0.196078
0.207843 0.207843 0.207843
0.211765 0.211765 0.211765
0.211765 0.211765 0.211765
0.215686 0.215686 0.215686
0.215686 0.215686 0.223529
0.223529 0.223529 0.231373
0.227451 0.227451 0.235294
0.235294 0.235294 0.243137
0.250980 0.243137 0.254902
0.298039 0.250980 0.250980
0.368627 0.258824 0.243137
0.431373 0.278431 0.219608
0.501961 0.305882 0.207843
0.576471 0.325490 0.188235
0.643137 0.337255 0.184314
0.690196 0.349020 0.180392
0.741176 0.345098 0.164706
0.776471 0.352941 0.172549
0.815686 0.352941 0.172549
0.850980 0.356863 0.168627
0.886275 0.349020 0.168627
0.921569 0.349020 0.164706
0.952941 0.337255 0.160784
0.988235 0.325490 0.156863
0.239216 0.239216 0.239216
0.235294 0.235294 0.235294
0.231373 0.231373 0.231373
0.231373 0.231373 0.231373
0.227451 0.227451 0.227451
0.227451 0.227451 0.227451
0.235294 0.235294 0.235294
0.239216 0.239216 0.239216
0.235294 0.235294 0.235294
0.243137 0.243137 0.243137
0.239216 0.239216 0.239216
0.239216 0.239216 0.239216
0.243137 0.243137 0.243137
0.243137 0.243137 0.243137
0.250980 0.250980 0.250980
0.258824 0.258824 0.258824
0.266667 0.266667 0.274510
0.294118 0.278431 0.282353
0.333333 0.286275 0.286275
0.396078 0.298039 0.282353
0.466667 0.309804 0.262745
0.552941 0.333333 0.243137
0.631373 0.356863 0.223529
0.686275 0.376471 0.223529
0.737255 0.392157 0.196078
0.776471 0.392157 0.200000
0.831373 0.400000 0.200000
0.858824 0.396078 0.200000
0.905882 0.396078 0.200000
0.921569 0.388235 0.200000
0.960784 0.380392 0.192157
0.996078 0.376471 0.192157
0.270588 0.270588 0.270588
0.266667 0.266667 0.266667
0.258824 0.258824 0.258824
0.262745 0.262745 0.262745
0.254902 0.254902 0.254902
0.258824 0.258824 0.258824
0.258824 0.258824 0.258824
0.258824 0.258824 0.258824
0.262745 0.262745 0.270588
0.266667 0.266667 0.266667
0.266667 0.266667 0.266667
0.266667 0.266667 0.266667
0.270588 0.270588 0.270588
0.274510 0.274510 0.274510
0.274510 0.274510 0.274510
0.278431 0.278431 0.278431
0.290196 0.290196 0.290196
0.301961 0.301961 0.301961
0.309804 0.309804 0.317647
0.345098 0.321569 0.321569
0.403922 0.329412 0.313725
0.478431 0.345098 0.305882
0.552941 0.364706 0.286275
0.623529 0.380392 0.282353
0.690196 0.407843 0.258824
0.741176 0.423529 0.254902
0.796078 0.435294 0.243137
0.843137 0.447059 0.243137
0.882353 0.450980 0.250980
0.913725 0.450980 0.254902
0.945098 0.450980 0.254902
0.980392 0.450980 0.262745
0.313725 0.321569 0.309804
0.317647 0.317647 0.309804
0.321569 0.321569 0.321569
0.321569 0.321569 0.321569
0.321569 0.321569 0.321569
0.321569 0.321569 0.321569
0.321569 0.321569 0.321569
0.325490 0.325490 0.325490
0.333333 0.325490 0.329412
0.329412 0.329412 0.329412
0.325490 0.333333 0.329412
0.329412 0.329412 0.329412
0.337255 0.329412 0.333333
0.341176 0.333333 0.337255
0.337255 0.337255 0.337255
0.337255 0.345098 0.341176
0.341176 0.349020 0.345098
0.352941 0.352941 0.345098
0.356863 0.364706 0.352941
0.368627 0.376471 0.372549
0.392157 0.384314 0.388235
0.439216 0.400000 0.392157
0.513725 0.415686 0.388235
0.580392 0.423529 0.384314
0.650980 0.443137 0.372549
0.713725 0.462745 0.356863
0.772549 0.482353 0.345098
0.823529 0.490196 0.329412
0.882353 0.505882 0.317647
0.909804 0.498039 0.309804
0.941176 0.501961 0.305882
0.976471 0.498039 0.298039
0.360784 0.360784 0.360784
0.364706 0.364706 0.364706
0.356863 0.356863 0.356863
0.352941 0.352941 0.352941
0.360784 0.352941 0.356863
0.356863 0.356863 0.356863
0.356863 0.356863 0.356863
0.360784 0.360784 0.352941
0.360784 0.360784 0.368627
0.360784 0.360784 0.360784
0.360784 0.360784 0.352941
0.364706 0.364706 0.356863
0.364706 0.364706 0.364706
0.368627 0.360784 0.372549
0.368627 0.368627 0.376471
0.372549 0.372549 0.380392
0.376471 0.376471 0.384314
0.380392 0.380392 0.380392
0.388235 0.388235 0.380392
0.396078 0.388235 0.392157
0.407843 0.407843 0.407843
0.431373 0.431373 0.431373
0.466667 0.447059 0.431373
0.529412 0.454902 0.439216
0.611765 0.462745 0.427451
0.670588 0.478431 0.423529
0.737255 0.498039 0.415686
0.792157 0.513725 0.396078
0.850980 0.521569 0.376471
0.894118 0.537255 0.360784
0.925490 0.541176 0.349020
0.968627 0.533333 0.352941
0.400000 0.407843 0.403922
0.392157 0.400000 0.396078
0.396078 0.396078 0.396078
0.392157 0.392157 0.392157
0.388235 0.388235 0.388235
0.392157 0.392157 0.392157
0.396078 0.396078 0.396078
0.392157 0.400000 0.396078
0.400000 0.392157 0.403922
0.400000 0.400000 0.407843
0.400000 0.400000 0.400000
0.400000 0.400000 0.400000
0.400000 0.400000 0.400000
0.400000 0.407843 0.403922
0.407843 0.407843 0.407843
0.415686 0.415686 0.415686
0.407843 0.415686 0.411765
0.419608 0.415686 0.407843
0.419608 0.419608 0.411765
0.431373 0.431373 0.423529
0.439216 0.439216 0.439216
0.447059 0.447059 0.454902
0.466667 0.466667 0.466667
0.501961 0.486275 0.482353
0.568627 0.494118 0.478431
0.631373 0.501961 0.474510
0.698039 0.517647 0.466667
0.760784 0.533333 0.454902
0.815686 0.541176 0.439216
0.862745 0.556863 0.415686
0.909804 0.560784 0.396078
0.956863 0.572549 0.396078
0.447059 0.447059 0.447059
0.439216 0.439216 0.439216
0.431373 0.431373 0.423529
0.435294 0.435294 0.427451
0.431373 0.431373 0.423529
0.435294 0.435294 0.435294
0.435294 0.435294 0.435294
0.435294 0.435294 0.443137
0.443137 0.435294 0.439216
0.439216 0.439216 0.439216
0.439216 0.439216 0.439216
0.447059 0.439216 0.443137
0.447059 0.439216 0.443137
0.443137 0.443137 0.443137
0.447059 0.447059 0.447059
0.450980 0.450980 0.443137
0.447059 0.454902 0.450980
0.458824 0.450980 0.462745
0.454902 0.454902 0.462745
0.462745 0.462745 0.462745
0.470588 0.470588 0.470588
0.478431 0.478431 0.470588
0.486275 0.494118 0.490196
0.505882 0.505882 0.505882
0.541176 0.525490 0.529412
0.592157 0.533333 0.521569
0.658824 0.545098 0.521569
0.721569 0.556863 0.509804
0.772549 0.564706 0.501961
0.831373 0.580392 0.482353
0.886275 0.588235 0.454902
0.937255 0.592157 0.435294
0.486275 0.486275 0.486275
0.482353 0.482353 0.482353
0.478431 0.470588 0.474510
0.478431 0.470588 0.474510
0.470588 0.470588 0.470588
0.474510 0.474510 0.474510
0.474510 0.474510 0.474510
0.478431 0.478431 0.478431
0.482353 0.474510 0.478431
0.474510 0.474510 0.474510
0.474510 0.482353 0.478431
0.474510 0.482353 0.478431
0.482353 0.482353 0.482353
0.482353 0.482353 0.490196
0.478431 0.478431 0.486275
0.486275 0.486275 0.494118
0.486275 0.490196 0.498039
0.498039 0.490196 0.494118
0.498039 0.490196 0.494118
0.498039 0.498039 0.498039
0.505882 0.498039 0.501961
0.509804 0.509804 0.509804
0.517647 0.525490 0.521569
0.533333 0.533333 0.525490
0.549020 0.549020 0.549020
0.592157 0.556863 0.560784
0.627451 0.564706 0.564706
0.690196 0.580392 0.564706
0.745098 0.588235 0.556863
0.800000 0.600000 0.533333
0.850980 0.607843 0.509804
0.901961 0.623529 0.513725
0.525490 0.525490 0.525490
0.521569 0.513725 0.517647
0.513725 0.513725 0.513725
0.513725 0.513725 0.513725
0.509804 0.517647 0.513725
0.509804 0.509804 0.509804
0.513725 0.513725 0.513725
0.513725 0.513725 0.513725
0.517647 0.509804 0.521569
0.513725 0.513725 0.513725
0.509804 0.517647 0.513725
0.513725 0.521569 0.517647
0.517647 0.517647 0.517647
0.525490 0.517647 0.521569
0.521569 0.521569 0.521569
0.521569 0.529412 0.525490
0.529412 0.521569 0.525490
0.529412 0.529412 0.529412
0.529412 0.529412 0.529412
0.529412 0.529412 0.529412
0.529412 0.529412 0.529412
0.537255 0.545098 0.541176
0.549020 0.549020 0.549020
0.552941 0.552941 0.545098
0.556863 0.572549 0.576471
0.584314 0.584314 0.584314
0.615686 0.600000 0.596078
0.650980 0.607843 0.592157
0.709804 0.611765 0.584314
0.768627 0.619608 0.568627
0.823529 0.635294 0.556863
0.866667 0.639216 0.552941
0.564706 0.564706 0.564706
0.556863 0.556863 0.556863
0.556863 0.556863 0.556863
0.552941 0.552941 0.552941
0.549020 0.549020 0.549020
0.549020 0.549020 0.549020
0.552941 0.552941 0.552941
0.552941 0.552941 0.552941
0.552941 0.556863 0.537255
0.552941 0.552941 0.545098
0.556863 0.556863 0.556863
0.556863 0.556863 0.556863
0.556863 0.556863 0.556863
0.556863 0.556863 0.556863
0.560784 0.560784 0.560784
0.560784 0.560784 0.560784
0.568627 0.564706 0.556863
0.560784 0.560784 0.552941
0.564706 0.564706 0.564706
0.564706 0.564706 0.564706
0.564706 0.568627 0.576471
0.568627 0.572549 0.580392
0.572549 0.580392 0.576471
0.588235 0.580392 0.584314
0.592157 0.592157 0.592157
0.607843 0.600000 0.603922
0.615686 0.615686 0.623529
0.650980 0.635294 0.631373
0.682353 0.635294 0.635294
0.745098 0.647059 0.627451
0.796078 0.650980 0.615686
0.843137 0.654902 0.600000
0.600000 0.600000 0.600000
0.596078 0.596078 0.596078
0.588235 0.588235 0.588235
0.592157 0.592157 0.592157
0.588235 0.588235 0.588235
0.592157 0.592157 0.592157
0.588235 0.588235 0.588235
0.588235 0.588235 0.588235
0.592157 0.592157 0.592157
0.588235 0.596078 0.592157
0.584314 0.592157 0.588235
0.584314 0.592157 0.588235
0.592157 0.592157 0.592157
0.596078 0.588235 0.592157
0.592157 0.592157 0.592157
0.596078 0.596078 0.596078
0.588235 0.588235 0.588235
0.600000 0.592157 0.596078
0.596078 0.596078 0.596078
0.600000 0.600000 0.600000
0.603922 0.596078 0.600000
0.600000 0.603922 0.611765
0.600000 0.607843 0.603922
0.607843 0.607843 0.607843
0.611765 0.611765 0.611765
0.627451 0.619608 0.623529
0.635294 0.635294 0.635294
0.643137 0.647059 0.654902
0.658824 0.658824 0.666667
0.694118 0.670588 0.670588
0.733333 0.678431 0.666667
0.768627 0.686275 0.666667
0.643137 0.643137 0.650980
0.639216 0.639216 0.647059
0.639216 0.639216 0.647059
0.639216 0.639216 0.639216
0.639216 0.639216 0.639216
0.639216 0.639216 0.639216
0.639216 0.639216 0.639216
0.639216 0.647059 0.635294
0.639216 0.647059 0.643137
0.639216 0.647059 0.643137
0.643137 0.643137 0.643137
0.643137 0.643137 0.643137
0.643137 0.643137 0.643137
0.639216 0.647059 0.643137
0.643137 0.643137 0.643137
0.650980 0.643137 0.654902
0.650980 0.643137 0.647059
0.654902 0.647059 0.658824
0.647059 0.647059 0.654902
0.647059 0.647059 0.647059
0.650980 0.643137 0.647059
0.643137 0.643137 0.635294
0.643137 0.650980 0.647059
0.654902 0.647059 0.658824
0.654902 0.654902 0.662745
0.658824 0.658824 0.658824
0.662745 0.662745 0.662745
0.674510 0.682353 0.678431
0.678431 0.678431 0.678431
0.686275 0.686275 0.686275
0.698039 0.698039 0.698039
0.725490 0.709804 0.705882
0.678431 0.678431 0.678431
0.674510 0.674510 0.674510
0.674510 0.674510 0.674510
0.674510 0.674510 0.674510
0.674510 0.674510 0.674510
0.674510 0.674510 0.674510
0.674510 0.674510 0.674510
0.670588 0.678431 0.674510
0.678431 0.670588 0.682353
0.678431 0.670588 0.682353
0.670588 0.670588 0.678431
0.670588 0.674510 0.682353
0.674510 0.674510 0.682353
0.674510 0.674510 0.682353
0.674510 0.674510 0.674510
0.678431 0.678431 0.670588
0.674510 0.674510 0.682353
0.678431 0.670588 0.674510
0.674510 0.674510 0.674510
0.662745 0.678431 0.674510
0.674510 0.674510 0.682353
0.678431 0.670588 0.674510
0.682353 0.674510 0.678431
0.674510 0.674510 0.674510
0.666667 0.682353 0.678431
0.678431 0.686275 0.674510
0.682353 0.682353 0.674510
0.690196 0.690196 0.690196
0.698039 0.698039 0.698039
0.705882 0.705882 0.705882
0.713725 0.713725 0.705882
0.725490 0.721569 0.713725
0.709804 0.701961 0.705882
0.701961 0.701961 0.701961
0.701961 0.701961 0.701961
0.701961 0.701961 0.701961
0.701961 0.701961 0.701961
0.705882 0.705882 0.705882
0.701961 0.701961 0.701961
0.705882 0.698039 0.701961
0.705882 0.698039 0.701961
0.698039 0.698039 0.698039
0.701961 0.709804 0.705882
0.705882 0.705882 0.705882
0.701961 0.701961 0.694118
0.701961 0.701961 0.694118
0.705882 0.705882 0.705882
0.698039 0.698039 0.698039
0.698039 0.705882 0.694118
0.701961 0.701961 0.701961
0.698039 0.701961 0.709804
0.698039 0.701961 0.709804
0.701961 0.701961 0.701961
0.701961 0.701961 0.701961
0.701961 0.701961 0.701961
0.705882 0.698039 0.709804
0.698039 0.698039 0.698039
0.709804 0.701961 0.705882
0.709804 0.709804 0.709804
0.709804 0.717647 0.713725
0.717647 0.717647 0.717647
0.725490 0.725490 0.725490
0.729412 0.729412 0.729412
0.741176 0.733333 0.737255
0.729412 0.737255 0.733333
0.725490 0.733333 0.729412
0.729412 0.729412 0.729412
0.729412 0.729412 0.737255
0.733333 0.725490 0.737255
0.733333 0.725490 0.729412
0.733333 0.725490 0.729412
0.733333 0.725490 0.729412
0.729412 0.729412 0.729412
0.733333 0.733333 0.733333
0.725490 0.733333 0.729412
0.729412 0.729412 0.729412
0.733333 0.725490 0.737255
0.729412 0.729412 0.737255
0.729412 0.729412 0.737255
0.729412 0.729412 0.729412
0.725490 0.733333 0.729412
0.729412 0.729412 0.729412
0.725490 0.725490 0.725490
0.721569 0.729412 0.725490
0.725490 0.725490 0.725490
0.725490 0.725490 0.725490
