assets/luts/filtro.CUBE
#Generated by wwww.onlinelutcreator.com 
LUT_3D_SIZE 5 
DOMAIN_MIN 0.000000 0.000000 0.000000
DOMAIN_MAX 0.903226 0.903226 0.903226
0.003922 0.000000 0.000000
0.078431 0.007843 0.007843
0.250980 0.000000 0.003922
0.505882 0.000000 0.015686
0.839216 0.000000 0.023529
0.058824 0.058824 0.058824
0.066667 0.066667 0.066667
0.254902 0.105882 0.031373
0.505882 0.113725 0.023529
0.831373 0.011765 0.023529
0.239216 0.239216 0.239216
0.239216 0.239216 0.239216
0.250980 0.250980 0.250980
0.552941 0.333333 0.243137
0.905882 0.396078 0.200000
0.525490 0.525490 0.525490
0.513725 0.513725 0.513725
0.521569 0.521569 0.521569
0.537255 0.545098 0.541176
0.709804 0.611765 0.584314
0.756863 0.756863 0.756863
0.760784 0.760784 0.760784
0.752941 0.752941 0.745098
0.752941 0.752941 0.752941
0.760784 0.768627 0.764706
0.035294 0.035294 0.035294
0.043137 0.043137 0.043137
0.247059 0.035294 0.125490
0.525490 0.000000 0.113725
0.839216 0.007843 0.098039
0.066667 0.074510 0.070588
0.105882 0.082353 0.090196
0.266667 0.070588 0.082353
0.509804 0.011765 0.086275
0.835294 0.000000 0.098039
0.247059 0.247059 0.247059
0.243137 0.243137 0.243137
0.258824 0.258824 0.258824
0.619608 0.360784 0.227451
0.905882 0.356863 0.215686
0.525490 0.525490 0.525490
0.513725 0.513725 0.513725
0.517647 0.525490 0.521569
0.545098 0.545098 0.545098
0.764706 0.619608 0.584314
0.760784 0.760784 0.760784
0.756863 0.756863 0.756863
0.752941 0.756863 0.764706
0.752941 0.760784 0.756863
0.776471 0.768627 0.772549
0.117647 0.117647 0.117647
0.129412 0.129412 0.129412
0.160784 0.160784 0.160784
0.309804 0.301961 0.305882
0.850980 0.000000 0.368627
0.145098 0.145098 0.145098
0.149020 0.149020 0.149020
0.164706 0.164706 0.156863
0.384314 0.258824 0.301961
0.831373 0.003922 0.305882
0.258824 0.258824 0.258824
0.262745 0.262745 0.262745
0.376471 0.313725 0.317647
0.635294 0.274510 0.286275
0.894118 0.243137 0.290196
0.545098 0.545098 0.545098
0.545098 0.545098 0.545098
0.564706 0.564706 0.564706
0.584314 0.576471 0.580392
0.827451 0.643137 0.564706
0.772549 0.772549 0.772549
0.764706 0.764706 0.764706
0.772549 0.772549 0.772549
0.772549 0.772549 0.772549
0.784314 0.784314 0.792157
0.270588 0.270588 0.270588
0.282353 0.282353 0.282353
0.309804 0.309804 0.309804
0.345098 0.345098 0.345098
0.533333 0.533333 0.533333
0.282353 0.282353 0.282353
0.282353 0.282353 0.282353
0.301961 0.301961 0.301961
0.341176 0.341176 0.341176
0.529412 0.529412 0.529412
0.427451 0.427451 0.427451
0.423529 0.423529 0.423529
0.454902 0.454902 0.454902
0.486275 0.486275 0.486275
0.666667 0.623529 0.639216
0.552941 0.552941 0.552941
0.549020 0.549020 0.549020
0.588235 0.588235 0.588235
0.666667 0.662745 0.647059
0.890196 0.596078 0.584314
0.772549 0.772549 0.772549
0.772549 0.772549 0.772549
0.788235 0.788235 0.788235
0.803922 0.803922 0.796078
0.807843 0.815686 0.811765
0.572549 0.572549 0.572549
0.576471 0.576471 0.576471
0.588235 0.588235 0.588235
0.600000 0.600000 0.600000
0.623529 0.623529 0.623529
0.596078 0.596078 0.596078
0.592157 0.592157 0.592157
0.603922 0.603922 0.603922
0.611765 0.611765 0.611765
0.627451 0.627451 0.627451
0.666667 0.666667 0.666667
0.662745 0.662745 0.662745
0.670588 0.670588 0.670588
0.674510 0.674510 0.674510
0.674510 0.674510 0.674510
0.717647 0.717647 0.717647
0.717647 0.717647 0.717647
0.733333 0.733333 0.733333
0.749020 0.749020 0.749020
0.745098 0.745098 0.745098
0.760784 0.760784 0.760784
0.764706 0.764706 0.764706
0.776471 0.776471 0.776471
0.811765 0.811765 0.811765
0.878431 0.862745 0.850980
