assets/luts/wesAnderson.CUBE
#Generated by wwww.onlinelutcreator.com 
LUT_3D_SIZE 8 
DOMAIN_MIN 0.000000 0.000000 0.000000
DOMAIN_MAX 0.903226 0.903226 0.903226
0.043137 0.094118 0.027451
0.298039 0.145098 0.023529
0.498039 0.227451 0.000000
0.615686 0.305882 0.003922
0.721569 0.372549 0.003922
0.784314 0.419608 0.003922
0.847059 0.478431 0.000000
0.917647 0.537255 0.000000
0.513725 0.250980 0.086275
0.313725 0.298039 0.011765
0.505882 0.274510 0.000000
0.623529 0.294118 0.007843
0.713725 0.368627 0.000000
0.780392 0.423529 0.003922
0.843137 0.482353 0.000000
0.909804 0.533333 0.000000
0.243137 0.450980 0.090196
0.317647 0.450980 0.078431
0.470588 0.439216 0.011765
0.615686 0.411765 0.023529
0.701961 0.392157 0.121569
0.784314 0.419608 0.149020
0.850980 0.474510 0.172549
0.913725 0.537255 0.196078
0.545098 0.505882 0.000000
0.400000 0.549020 0.152941
0.498039 0.541176 0.070588
0.607843 0.517647 0.000000
0.701961 0.494118 0.094118
0.780392 0.470588 0.200000
0.847059 0.486275 0.231373
0.917647 0.521569 0.247059
0.419608 0.635294 0.266667
0.443137 0.627451 0.258824
0.486275 0.631373 0.254902
0.564706 0.631373 0.184314
0.678431 0.619608 0.058824
0.768627 0.596078 0.113725
0.843137 0.580392 0.262745
0.921569 0.580392 0.309804
0.545098 0.686275 0.262745
0.498039 0.694118 0.313725
0.556863 0.694118 0.286275
0.603922 0.698039 0.258824
0.686275 0.698039 0.184314
0.784314 0.682353 0.058824
0.874510 0.670588 0.141176
0.945098 0.658824 0.290196
0.600000 0.803922 0.278431
0.596078 0.807843 0.270588
0.603922 0.803922 0.266667
0.650980 0.800000 0.223529
0.705882 0.796078 0.145098
0.796078 0.792157 0.000000
0.894118 0.768627 0.000000
0.960784 0.752941 0.070588
0.658824 0.854902 0.262745
0.650980 0.862745 0.321569
0.631373 0.870588 0.333333
0.670588 0.866667 0.290196
0.729412 0.866667 0.254902
0.807843 0.866667 0.156863
0.898039 0.866667 0.000000
0.984314 0.850980 0.000000
0.250980 0.196078 0.160784
0.372549 0.203922 0.176471
0.505882 0.247059 0.160784
0.607843 0.305882 0.133333
0.698039 0.364706 0.101961
0.768627 0.411765 0.101961
0.843137 0.466667 0.125490
0.913725 0.521569 0.137255
0.486275 0.266667 0.176471
0.352941 0.321569 0.129412
0.470588 0.309804 0.090196
0.592157 0.301961 0.156863
0.682353 0.325490 0.149020
0.749020 0.376471 0.149020
0.835294 0.435294 0.184314
0.905882 0.490196 0.192157
0.270588 0.439216 0.219608
0.329412 0.435294 0.219608
0.478431 0.427451 0.117647
0.603922 0.407843 0.207843
0.686275 0.407843 0.243137
0.760784 0.439216 0.243137
0.827451 0.501961 0.243137
0.909804 0.552941 0.235294
0.549020 0.494118 0.113725
0.403922 0.529412 0.243137
0.498039 0.533333 0.184314
0.607843 0.517647 0.078431
0.686275 0.490196 0.203922
0.764706 0.478431 0.270588
0.847059 0.490196 0.282353
0.917647 0.533333 0.278431
0.431373 0.623529 0.301961
0.443137 0.631373 0.301961
0.482353 0.631373 0.290196
0.564706 0.631373 0.231373
0.670588 0.615686 0.137255
0.764706 0.584314 0.200000
0.839216 0.576471 0.298039
0.925490 0.580392 0.333333
0.549020 0.678431 0.270588
0.517647 0.690196 0.341176
0.560784 0.694118 0.325490
0.607843 0.690196 0.286275
0.686275 0.694118 0.211765
0.784314 0.678431 0.117647
0.866667 0.666667 0.207843
0.945098 0.662745 0.329412
0.611765 0.800000 0.321569
0.607843 0.803922 0.313725
0.615686 0.796078 0.305882
0.658824 0.792157 0.258824
0.717647 0.788235 0.207843
0.796078 0.788235 0.070588
0.898039 0.772549 0.000000
0.968627 0.756863 0.176471
0.662745 0.866667 0.301961
0.627451 0.858824 0.352941
0.631373 0.862745 0.356863
0.670588 0.866667 0.337255
0.733333 0.866667 0.290196
0.803922 0.866667 0.203922
0.901961 0.858824 0.058824
0.980392 0.843137 0.000000
0.286275 0.203922 0.333333
0.368627 0.211765 0.317647
0.482353 0.294118 0.294118
0.588235 0.372549 0.290196
0.666667 0.419608 0.282353
0.749020 0.454902 0.290196
0.815686 0.505882 0.286275
0.909804 0.552941 0.274510
0.482353 0.317647 0.325490
0.364706 0.313725 0.282353
0.454902 0.317647 0.309804
0.568627 0.337255 0.321569
0.647059 0.380392 0.298039
0.729412 0.427451 0.309804
0.803922 0.474510 0.294118
0.890196 0.525490 0.301961
0.337255 0.439216 0.341176
0.349020 0.431373 0.356863
0.474510 0.419608 0.274510
0.572549 0.419608 0.352941
0.658824 0.435294 0.360784
0.737255 0.478431 0.345098
0.815686 0.529412 0.329412
0.901961 0.572549 0.321569
0.541176 0.486275 0.247059
0.407843 0.537255 0.352941
0.490196 0.525490 0.301961
0.603922 0.509804 0.227451
0.682353 0.494118 0.345098
0.749020 0.490196 0.356863
0.835294 0.513725 0.368627
0.909804 0.556863 0.352941
0.443137 0.623529 0.372549
0.462745 0.627451 0.376471
0.501961 0.619608 0.368627
0.568627 0.615686 0.317647
0.670588 0.607843 0.231373
0.760784 0.596078 0.313725
0.827451 0.580392 0.372549
0.921569 0.584314 0.384314
0.552941 0.682353 0.341176
0.509804 0.690196 0.396078
0.552941 0.686275 0.388235
0.611765 0.686275 0.364706
0.686275 0.690196 0.290196
0.788235 0.682353 0.223529
0.858824 0.658824 0.298039
0.941176 0.666667 0.384314
0.603922 0.807843 0.376471
0.603922 0.796078 0.368627
0.615686 0.796078 0.372549
0.662745 0.788235 0.352941
0.709804 0.788235 0.298039
0.803922 0.776471 0.215686
0.890196 0.768627 0.168627
0.960784 0.745098 0.286275
0.662745 0.862745 0.364706
0.639216 0.866667 0.392157
0.639216 0.866667 0.384314
0.678431 0.870588 0.380392
0.733333 0.862745 0.349020
0.807843 0.862745 0.286275
0.901961 0.862745 0.176471
0.980392 0.847059 0.129412
0.223529 0.258824 0.427451
0.376471 0.231373 0.435294
0.490196 0.239216 0.435294
0.588235 0.270588 0.400000
0.658824 0.407843 0.368627
0.729412 0.486275 0.388235
0.803922 0.541176 0.376471
0.894118 0.580392 0.372549
0.466667 0.282353 0.423529
0.360784 0.321569 0.419608
0.474510 0.317647 0.419608
0.552941 0.392157 0.407843
0.627451 0.439216 0.400000
0.705882 0.474510 0.403922
0.792157 0.513725 0.403922
0.874510 0.556863 0.372549
0.321569 0.447059 0.403922
0.364706 0.447059 0.411765
0.458824 0.443137 0.439216
0.556863 0.478431 0.450980
0.639216 0.498039 0.450980
0.725490 0.529412 0.423529
0.807843 0.564706 0.419608
0.882353 0.607843 0.403922
0.509804 0.490196 0.376471
0.431373 0.525490 0.439216
0.494118 0.529412 0.423529
0.600000 0.509804 0.388235
0.658824 0.494118 0.439216
0.737255 0.505882 0.443137
0.811765 0.549020 0.435294
0.898039 0.596078 0.431373
0.478431 0.615686 0.450980
0.486275 0.611765 0.450980
0.513725 0.619608 0.450980
0.576471 0.607843 0.415686
0.670588 0.600000 0.341176
0.752941 0.588235 0.423529
0.823529 0.584314 0.462745
0.925490 0.603922 0.458824
0.533333 0.674510 0.423529
0.533333 0.686275 0.470588
0.552941 0.686275 0.447059
0.607843 0.690196 0.435294
0.690196 0.686275 0.364706
0.780392 0.674510 0.325490
0.858824 0.662745 0.415686
0.941176 0.658824 0.462745
0.603922 0.803922 0.443137
0.615686 0.796078 0.443137
0.631373 0.788235 0.439216
0.654902 0.792157 0.423529
0.713725 0.784314 0.384314
0.803922 0.780392 0.309804
0.886275 0.760784 0.286275
0.956863 0.749020 0.388235
0.635294 0.862745 0.431373
0.619608 0.870588 0.431373
0.631373 0.874510 0.439216
0.678431 0.870588 0.450980
0.725490 0.858824 0.419608
0.803922 0.862745 0.364706
0.901961 0.854902 0.274510
0.984314 0.843137 0.254902
0.156863 0.321569 0.517647
0.298039 0.282353 0.513725
0.482353 0.266667 0.521569
0.584314 0.290196 0.521569
0.670588 0.305882 0.513725
0.741176 0.384314 0.450980
0.815686 0.513725 0.443137
0.882353 0.584314 0.443137
0.478431 0.294118 0.509804
0.313725 0.368627 0.513725
0.474510 0.333333 0.513725
0.568627 0.337255 0.517647
0.635294 0.356863 0.482353
0.717647 0.450980 0.454902
0.788235 0.533333 0.462745
0.862745 0.584314 0.458824
0.286275 0.541176 0.509804
0.313725 0.533333 0.521569
0.450980 0.443137 0.525490
0.560784 0.435294 0.525490
0.643137 0.454902 0.501961
0.717647 0.529412 0.474510
0.792157 0.592157 0.486275
0.878431 0.631373 0.470588
0.474510 0.482353 0.529412
0.470588 0.509804 0.474510
0.517647 0.517647 0.517647
0.564706 0.521569 0.513725
0.643137 0.545098 0.517647
0.721569 0.564706 0.517647
0.807843 0.596078 0.494118
0.894118 0.639216 0.474510
0.541176 0.596078 0.505882
0.533333 0.603922 0.509804
0.533333 0.611765 0.513725
0.584314 0.607843 0.505882
0.670588 0.600000 0.458824
0.733333 0.596078 0.521569
0.823529 0.592157 0.537255
0.917647 0.623529 0.509804
0.513725 0.682353 0.513725
0.545098 0.686275 0.513725
0.556863 0.686275 0.517647
0.603922 0.690196 0.505882
0.682353 0.686275 0.458824
0.788235 0.670588 0.427451
0.854902 0.662745 0.505882
0.952941 0.654902 0.513725
0.603922 0.792157 0.501961
0.611765 0.792157 0.509804
0.611765 0.800000 0.509804
0.647059 0.792157 0.490196
0.705882 0.792157 0.466667
0.796078 0.784314 0.403922
0.878431 0.776471 0.403922
0.949020 0.752941 0.474510
0.588235 0.866667 0.498039
0.615686 0.870588 0.501961
0.619608 0.878431 0.498039
0.650980 0.874510 0.494118
0.721569 0.866667 0.490196
0.796078 0.870588 0.450980
0.898039 0.858824 0.372549
0.984314 0.843137 0.360784
0.000000 0.380392 0.588235
0.219608 0.356863 0.584314
0.427451 0.305882 0.580392
0.576471 0.313725 0.592157
0.650980 0.329412 0.580392
0.741176 0.341176 0.588235
0.835294 0.380392 0.525490
0.909804 0.478431 0.482353
0.427451 0.309804 0.592157
0.254902 0.419608 0.576471
0.423529 0.349020 0.568627
0.560784 0.349020 0.576471
0.650980 0.356863 0.580392
0.729412 0.364706 0.572549
0.815686 0.392157 0.517647
0.890196 0.505882 0.501961
0.203922 0.588235 0.592157
0.254902 0.568627 0.596078
0.384314 0.478431 0.580392
0.556863 0.439216 0.588235
0.643137 0.447059 0.584314
0.729412 0.450980 0.576471
0.819608 0.482353 0.525490
0.901961 0.564706 0.513725
0.447059 0.486275 0.584314
0.431373 0.584314 0.564706
0.482353 0.576471 0.592157
0.572549 0.517647 0.576471
0.643137 0.517647 0.576471
0.729412 0.549020 0.549020
0.803922 0.615686 0.537255
0.890196 0.654902 0.521569
0.533333 0.584314 0.513725
0.541176 0.592157 0.521569
0.572549 0.596078 0.556863
0.584314 0.611765 0.580392
0.654902 0.600000 0.588235
0.729412 0.623529 0.588235
0.815686 0.650980 0.588235
0.905882 0.690196 0.572549
0.513725 0.678431 0.584314
0.588235 0.678431 0.564706
0.584314 0.682353 0.568627
0.607843 0.686275 0.580392
0.678431 0.682353 0.549020
0.772549 0.670588 0.533333
0.854902 0.662745 0.596078
0.956863 0.674510 0.580392
0.635294 0.784314 0.584314
0.639216 0.792157 0.584314
0.623529 0.792157 0.580392
0.643137 0.788235 0.576471
0.694118 0.788235 0.552941
0.792157 0.784314 0.490196
0.878431 0.768627 0.513725
0.964706 0.752941 0.568627
0.580392 0.866667 0.580392
0.643137 0.870588 0.572549
0.631373 0.866667 0.576471
0.639216 0.878431 0.572549
0.698039 0.870588 0.560784
0.780392 0.866667 0.533333
0.898039 0.858824 0.474510
0.980392 0.847059 0.466667
0.003922 0.462745 0.670588
0.000000 0.435294 0.662745
0.305882 0.372549 0.654902
0.552941 0.325490 0.658824
0.658824 0.333333 0.654902
0.756863 0.345098 0.666667
0.831373 0.360784 0.643137
0.917647 0.376471 0.607843
0.211765 0.380392 0.650980
0.019608 0.470588 0.654902
0.317647 0.403922 0.639216
0.533333 0.360784 0.654902
0.654902 0.356863 0.650980
0.737255 0.360784 0.643137
0.819608 0.364706 0.643137
0.905882 0.376471 0.596078
0.000000 0.631373 0.670588
0.062745 0.600000 0.670588
0.282353 0.537255 0.662745
0.501961 0.450980 0.662745
0.654902 0.443137 0.670588
0.741176 0.450980 0.658824
0.831373 0.443137 0.658824
0.921569 0.439216 0.619608
0.258824 0.600000 0.674510
0.321569 0.674510 0.666667
0.380392 0.631373 0.670588
0.498039 0.533333 0.654902
0.658824 0.509804 0.654902
0.745098 0.501961 0.647059
0.835294 0.494118 0.627451
0.921569 0.521569 0.572549
0.411765 0.682353 0.607843
0.423529 0.686275 0.619608
0.478431 0.690196 0.639216
0.525490 0.694118 0.666667
0.650980 0.600000 0.670588
0.745098 0.592157 0.666667
0.843137 0.615686 0.611765
0.909804 0.694118 0.611765
0.509804 0.662745 0.580392
0.556863 0.670588 0.560784
0.584314 0.678431 0.576471
0.635294 0.686275 0.615686
0.666667 0.686275 0.658824
0.752941 0.678431 0.662745
0.839216 0.713725 0.670588
0.925490 0.749020 0.658824
0.709804 0.768627 0.600000
0.717647 0.764706 0.607843
0.709804 0.780392 0.631373
0.686275 0.788235 0.643137
0.694118 0.796078 0.658824
0.788235 0.784314 0.611765
0.850980 0.776471 0.658824
0.952941 0.772549 0.670588
0.643137 0.866667 0.666667
0.705882 0.862745 0.654902
0.705882 0.862745 0.658824
0.694118 0.866667 0.666667
0.701961 0.866667 0.670588
0.772549 0.870588 0.643137
0.886275 0.858824 0.576471
0.980392 0.847059 0.607843
0.007843 0.541176 0.768627
0.000000 0.517647 0.772549
0.003922 0.454902 0.768627
0.427451 0.368627 0.764706
0.670588 0.325490 0.764706
0.776471 0.333333 0.756863
0.866667 0.329412 0.745098
0.949020 0.341176 0.737255
0.000000 0.454902 0.745098
0.000000 0.560784 0.764706
0.000000 0.482353 0.756863
0.376471 0.392157 0.749020
0.643137 0.341176 0.741176
0.756863 0.341176 0.737255
0.850980 0.337255 0.737255
0.937255 0.360784 0.717647
0.000000 0.698039 0.776471
0.000000 0.674510 0.768627
0.003922 0.615686 0.776471
0.345098 0.490196 0.764706
0.623529 0.439216 0.756863
0.749020 0.427451 0.756863
0.854902 0.427451 0.752941
0.937255 0.435294 0.729412
0.000000 0.674510 0.760784
0.000000 0.749020 0.768627
0.141176 0.701961 0.764706
0.345098 0.584314 0.756863
0.603922 0.478431 0.741176
0.756863 0.478431 0.752941
0.850980 0.478431 0.737255
0.952941 0.486275 0.737255
0.196078 0.807843 0.752941
0.231373 0.807843 0.737255
0.298039 0.807843 0.760784
0.356863 0.784314 0.772549
0.505882 0.639216 0.784314
0.749020 0.576471 0.776471
0.858824 0.568627 0.760784
0.956863 0.576471 0.752941
0.219608 0.800000 0.705882
0.313725 0.796078 0.686275
0.372549 0.803922 0.698039
0.458824 0.800000 0.725490
0.545098 0.800000 0.768627
0.733333 0.678431 0.776471
0.866667 0.658824 0.768627
0.956863 0.674510 0.721569
0.537255 0.811765 0.607843
0.549020 0.807843 0.619608
0.576471 0.815686 0.643137
0.607843 0.819608 0.686275
0.647059 0.823529 0.733333
0.729412 0.796078 0.772549
0.850980 0.784314 0.756863
0.929412 0.815686 0.745098
0.709804 0.858824 0.635294
0.752941 0.862745 0.635294
0.764706 0.858824 0.662745
0.776471 0.862745 0.678431
0.772549 0.866667 0.725490
0.780392 0.870588 0.768627
0.850980 0.862745 0.749020
0.945098 0.843137 0.776471
