assets/luts/wesAnderson.CUBE
#Generated by wwww.onlinelutcreator.com 
LUT_3D_SIZE 5 
DOMAIN_MIN 0.000000 0.000000 0.000000
DOMAIN_MAX 0.903226 0.903226 0.903226
0.043137 0.094118 0.027451
0.447059 0.211765 0.007843
0.674510 0.345098 0.000000
0.796078 0.435294 0.000000
0.917647 0.537255 0.000000
0.458824 0.360784 0.007843
0.474510 0.388235 0.000000
0.662745 0.356863 0.023529
0.780392 0.427451 0.050980
0.898039 0.521569 0.090196
0.482353 0.560784 0.086275
0.501961 0.580392 0.137255
0.654902 0.556863 0.000000
0.788235 0.517647 0.211765
0.925490 0.529412 0.262745
0.552941 0.698039 0.250980
0.556863 0.705882 0.301961
0.650980 0.713725 0.227451
0.827451 0.705882 0.015686
0.960784 0.678431 0.278431
0.658824 0.854902 0.262745
0.643137 0.866667 0.321569
0.694118 0.866667 0.290196
0.827451 0.862745 0.113725
0.984314 0.850980 0.000000
0.270588 0.200000 0.294118
0.454902 0.294118 0.270588
0.635294 0.380392 0.254902
0.776471 0.458824 0.250980
0.905882 0.545098 0.243137
0.411765 0.364706 0.207843
0.407843 0.392157 0.247059
0.607843 0.372549 0.278431
0.745098 0.396078 0.278431
0.874510 0.474510 0.286275
0.498039 0.545098 0.254902
0.513725 0.564706 0.294118
0.658824 0.541176 0.188235
0.776471 0.525490 0.345098
0.917647 0.549020 0.349020
0.560784 0.701961 0.325490
0.556863 0.705882 0.372549
0.650980 0.705882 0.321569
0.819608 0.701961 0.184314
0.949020 0.682353 0.356863
0.654902 0.862745 0.345098
0.647059 0.866667 0.376471
0.701961 0.862745 0.352941
0.831373 0.858824 0.239216
0.980392 0.850980 0.070588
0.196078 0.286275 0.482353
0.450980 0.254902 0.486275
0.631373 0.282353 0.462745
0.752941 0.482353 0.419608
0.886275 0.596078 0.403922
0.364706 0.364706 0.474510
0.427451 0.392157 0.458824
0.572549 0.427451 0.458824
0.713725 0.478431 0.447059
0.854902 0.552941 0.435294
0.466667 0.533333 0.470588
0.521569 0.549020 0.478431
0.647059 0.537255 0.443137
0.760784 0.533333 0.486275
0.909804 0.603922 0.454902
0.541176 0.701961 0.466667
0.576471 0.705882 0.490196
0.658824 0.705882 0.447059
0.807843 0.698039 0.368627
0.945098 0.686275 0.482353
0.611765 0.866667 0.458824
0.619608 0.874510 0.474510
0.698039 0.866667 0.454902
0.827451 0.862745 0.396078
0.984314 0.843137 0.309804
0.000000 0.396078 0.607843
0.341176 0.337255 0.596078
0.603922 0.325490 0.600000
0.768627 0.352941 0.603922
0.917647 0.435294 0.505882
0.152941 0.498039 0.584314
0.356863 0.450980 0.592157
0.584314 0.388235 0.580392
0.725490 0.376471 0.549020
0.870588 0.509804 0.513725
0.384314 0.572549 0.572549
0.509804 0.596078 0.584314
0.627451 0.541176 0.588235
0.737255 0.603922 0.556863
0.894118 0.670588 0.556863
0.525490 0.694118 0.588235
0.603922 0.705882 0.592157
0.650980 0.709804 0.588235
0.811765 0.690196 0.568627
0.964706 0.686275 0.615686
0.588235 0.866667 0.592157
0.647059 0.870588 0.592157
0.670588 0.870588 0.600000
0.811765 0.870588 0.545098
0.980392 0.847059 0.498039
0.007843 0.541176 0.768627
0.000000 0.482353 0.764706
0.556863 0.337255 0.764706
0.800000 0.329412 0.752941
0.949020 0.341176 0.737255
0.000000 0.631373 0.737255
0.000000 0.564706 0.737255
0.470588 0.392157 0.733333
0.752941 0.356863 0.717647
0.929412 0.360784 0.717647
0.000000 0.764706 0.741176
0.223529 0.749020 0.760784
0.474510 0.560784 0.745098
0.780392 0.505882 0.741176
0.960784 0.517647 0.737255
0.235294 0.788235 0.662745
0.407843 0.784314 0.674510
0.541176 0.803922 0.737255
0.784314 0.694118 0.772549
0.956863 0.721569 0.729412
0.709804 0.858824 0.635294
0.749020 0.854902 0.639216
0.768627 0.866667 0.701961
0.776471 0.870588 0.768627
0.945098 0.843137 0.776471
