assets/luts/wesAnderson.CUBE
#Generated by wwww.onlinelutcreator.com 
LUT_3D_SIZE 32 
0.043137 0.094118 0.027451
0.101961 0.094118 0.043137
0.168627 0.094118 0.039216
0.235294 0.105882 0.031373
0.298039 0.145098 0.023529
0.356863 0.172549 0.007843
0.407843 0.188235 0.000000
0.447059 0.211765 0.007843
0.498039 0.227451 0.000000
0.525490 0.247059 0.003922
0.556863 0.270588 0.000000
0.588235 0.286275 0.003922
0.615686 0.305882 0.003922
0.643137 0.325490 0.003922
0.674510 0.345098 0.000000
0.698039 0.352941 0.000000
0.721569 0.372549 0.003922
0.729412 0.384314 0.000000
0.749020 0.400000 0.000000
0.768627 0.407843 0.003922
0.784314 0.419608 0.003922
0.796078 0.435294 0.000000
0.819608 0.450980 0.000000
0.839216 0.466667 0.003922
0.847059 0.478431 0.000000
0.862745 0.494118 0.015686
0.874510 0.509804 0.000000
0.901961 0.525490 0.000000
0.917647 0.537255 0.000000
0.945098 0.552941 0.003922
0.952941 0.564706 0.000000
1.000000 0.658824 0.003922
0.572549 0.282353 0.000000
0.000000 0.160784 0.000000
0.184314 0.164706 0.050980
0.239216 0.156863 0.035294
0.313725 0.164706 0.023529
0.364706 0.164706 0.000000
0.419608 0.180392 0.007843
0.450980 0.203922 0.000000
0.490196 0.231373 0.000000
0.525490 0.247059 0.000000
0.556863 0.262745 0.000000
0.588235 0.286275 0.003922
0.615686 0.305882 0.000000
0.643137 0.325490 0.003922
0.666667 0.337255 0.000000
0.694118 0.349020 0.000000
0.709804 0.368627 0.003922
0.729412 0.376471 0.000000
0.745098 0.396078 0.000000
0.760784 0.415686 0.000000
0.788235 0.427451 0.000000
0.800000 0.439216 0.003922
0.803922 0.454902 0.000000
0.823529 0.470588 0.000000
0.843137 0.478431 0.003922
0.858824 0.490196 0.000000
0.874510 0.509804 0.003922
0.901961 0.521569 0.000000
0.913725 0.529412 0.000000
0.937255 0.545098 0.003922
0.956863 0.560784 0.003922
1.000000 0.658824 0.000000
0.568627 0.286275 0.000000
0.043137 0.215686 0.015686
0.203922 0.196078 0.047059
0.247059 0.203922 0.023529
0.313725 0.203922 0.019608
0.368627 0.203922 0.015686
0.407843 0.200000 0.003922
0.462745 0.207843 0.000000
0.494118 0.223529 0.000000
0.525490 0.247059 0.003922
0.560784 0.266667 0.000000
0.588235 0.282353 0.000000
0.623529 0.301961 0.011765
0.639216 0.321569 0.003922
0.658824 0.337255 0.000000
0.694118 0.349020 0.000000
0.713725 0.372549 0.007843
0.729412 0.384314 0.000000
0.749020 0.400000 0.000000
0.768627 0.411765 0.000000
0.780392 0.423529 0.003922
0.796078 0.443137 0.000000
0.811765 0.454902 0.003922
0.823529 0.466667 0.007843
0.835294 0.482353 0.003922
0.862745 0.498039 0.000000
0.870588 0.505882 0.000000
0.886275 0.517647 0.000000
0.905882 0.529412 0.000000
0.937255 0.545098 0.003922
0.949020 0.560784 0.000000
0.996078 0.647059 0.003922
0.533333 0.266667 0.011765
0.054902 0.254902 0.031373
0.211765 0.254902 0.035294
0.262745 0.254902 0.015686
0.317647 0.243137 0.011765
0.368627 0.250980 0.007843
0.415686 0.243137 0.003922
0.466667 0.235294 0.000000
0.498039 0.239216 0.000000
0.525490 0.254902 0.000000
0.556863 0.262745 0.000000
0.588235 0.282353 0.000000
0.611765 0.301961 0.000000
0.635294 0.317647 0.000000
0.662745 0.329412 0.003922
0.686275 0.352941 0.000000
0.713725 0.364706 0.003922
0.729412 0.376471 0.000000
0.741176 0.392157 0.000000
0.768627 0.407843 0.003922
0.772549 0.427451 0.003922
0.792157 0.439216 0.000000
0.811765 0.454902 0.000000
0.823529 0.470588 0.000000
0.835294 0.482353 0.000000
0.858824 0.490196 0.000000
0.870588 0.505882 0.000000
0.890196 0.521569 0.000000
0.909804 0.533333 0.000000
0.925490 0.545098 0.000000
0.949020 0.556863 0.007843
0.988235 0.647059 0.000000
0.513725 0.250980 0.086275
0.090196 0.298039 0.023529
0.231373 0.290196 0.035294
0.266667 0.294118 0.019608
0.313725 0.298039 0.011765
0.368627 0.290196 0.003922
0.415686 0.282353 0.000000
0.450980 0.286275 0.000000
0.505882 0.274510 0.000000
0.529412 0.266667 0.000000
0.560784 0.274510 0.003922
0.592157 0.286275 0.000000
0.623529 0.294118 0.007843
0.647059 0.313725 0.000000
0.666667 0.337255 0.000000
0.690196 0.345098 0.000000
0.713725 0.368627 0.000000
0.721569 0.384314 0.000000
0.741176 0.396078 0.003922
0.756863 0.407843 0.000000
0.780392 0.423529 0.003922
0.796078 0.435294 0.000000
0.811765 0.454902 0.000000
0.823529 0.470588 0.000000
0.843137 0.482353 0.000000
0.858824 0.490196 0.003922
0.878431 0.505882 0.003922
0.890196 0.521569 0.003922
0.909804 0.533333 0.000000
0.929412 0.549020 0.003922
0.952941 0.560784 0.023529
1.000000 0.635294 0.000000
0.482353 0.274510 0.101961
0.184314 0.333333 0.007843
0.266667 0.333333 0.019608
0.294118 0.341176 0.019608
0.333333 0.329412 0.003922
0.372549 0.333333 0.000000
0.431373 0.321569 0.000000
0.466667 0.317647 0.000000
0.505882 0.313725 0.003922
0.533333 0.309804 0.000000
0.564706 0.301961 0.000000
0.600000 0.301961 0.003922
0.623529 0.301961 0.003922
0.643137 0.317647 0.003922
0.670588 0.333333 0.000000
0.690196 0.345098 0.000000
0.705882 0.356863 0.000000
0.721569 0.376471 0.000000
0.737255 0.392157 0.007843
0.752941 0.403922 0.000000
0.776471 0.423529 0.000000
0.792157 0.439216 0.000000
0.803922 0.450980 0.003922
0.831373 0.466667 0.000000
0.843137 0.482353 0.000000
0.858824 0.490196 0.003922
0.878431 0.505882 0.003922
0.882353 0.521569 0.000000
0.901961 0.533333 0.007843
0.929412 0.549020 0.039216
0.952941 0.564706 0.058824
1.000000 0.615686 0.078431
0.454902 0.317647 0.050980
0.239216 0.368627 0.019608
0.298039 0.356863 0.023529
0.317647 0.368627 0.015686
0.360784 0.356863 0.000000
0.380392 0.368627 0.003922
0.423529 0.360784 0.000000
0.474510 0.356863 0.003922
0.505882 0.349020 0.003922
0.541176 0.345098 0.003922
0.568627 0.345098 0.000000
0.600000 0.333333 0.000000
0.627451 0.329412 0.000000
0.647059 0.333333 0.000000
0.670588 0.341176 0.000000
0.694118 0.349020 0.000000
0.709804 0.368627 0.003922
0.733333 0.380392 0.000000
0.752941 0.392157 0.000000
0.760784 0.400000 0.000000
0.776471 0.419608 0.007843
0.784314 0.439216 0.007843
0.803922 0.450980 0.003922
0.819608 0.458824 0.015686
0.831373 0.474510 0.023529
0.854902 0.486275 0.031373
0.870588 0.505882 0.039216
0.886275 0.513725 0.058824
0.898039 0.525490 0.062745
0.929412 0.541176 0.074510
0.956863 0.560784 0.105882
0.996078 0.607843 0.109804
0.458824 0.360784 0.007843
0.266667 0.400000 0.027451
0.317647 0.400000 0.035294
0.333333 0.403922 0.015686
0.360784 0.392157 0.000000
0.396078 0.396078 0.011765
0.427451 0.396078 0.000000
0.474510 0.388235 0.000000
0.498039 0.380392 0.000000
0.537255 0.380392 0.003922
0.568627 0.372549 0.000000
0.596078 0.364706 0.003922
0.623529 0.360784 0.019608
0.643137 0.360784 0.027451
0.662745 0.356863 0.023529
0.690196 0.360784 0.023529
0.709804 0.372549 0.031373
0.729412 0.376471 0.039216
0.741176 0.380392 0.039216
0.760784 0.403922 0.054902
0.764706 0.407843 0.043137
0.780392 0.427451 0.050980
0.796078 0.443137 0.062745
0.819608 0.450980 0.058824
0.831373 0.470588 0.066667
0.847059 0.482353 0.074510
0.866667 0.494118 0.078431
0.882353 0.509804 0.086275
0.898039 0.521569 0.090196
0.913725 0.533333 0.090196
0.929412 0.549020 0.090196
0.949020 0.568627 0.109804
0.243137 0.450980 0.090196
0.254902 0.454902 0.082353
0.278431 0.454902 0.082353
0.298039 0.454902 0.078431
0.317647 0.450980 0.078431
0.352941 0.450980 0.054902
0.392157 0.443137 0.019608
0.427451 0.447059 0.000000
0.470588 0.439216 0.011765
0.513725 0.435294 0.000000
0.552941 0.427451 0.000000
0.584314 0.419608 0.000000
0.615686 0.411765 0.023529
0.639216 0.403922 0.058824
0.662745 0.400000 0.094118
0.690196 0.388235 0.113725
0.701961 0.392157 0.121569
0.717647 0.392157 0.125490
0.745098 0.396078 0.129412
0.764706 0.407843 0.133333
0.784314 0.419608 0.149020
0.792157 0.427451 0.152941
0.811765 0.443137 0.160784
0.835294 0.458824 0.160784
0.850980 0.474510 0.172549
0.866667 0.494118 0.180392
0.878431 0.505882 0.176471
0.894118 0.521569 0.168627
0.913725 0.537255 0.196078
0.933333 0.552941 0.184314
0.956863 0.568627 0.203922
1.000000 0.654902 0.192157
0.603922 0.392157 0.117647
0.164706 0.486275 0.101961
0.301961 0.486275 0.117647
0.321569 0.486275 0.094118
0.329412 0.486275 0.098039
0.356863 0.482353 0.094118
0.388235 0.478431 0.054902
0.427451 0.486275 0.027451
0.466667 0.470588 0.000000
0.501961 0.466667 0.000000
0.541176 0.458824 0.000000
0.580392 0.450980 0.000000
0.611765 0.443137 0.000000
0.643137 0.443137 0.031373
0.654902 0.431373 0.082353
0.682353 0.423529 0.117647
0.690196 0.419608 0.125490
0.721569 0.411765 0.141176
0.741176 0.407843 0.145098
0.756863 0.415686 0.152941
0.780392 0.419608 0.172549
0.796078 0.435294 0.172549
0.807843 0.443137 0.172549
0.831373 0.450980 0.184314
0.839216 0.474510 0.172549
0.862745 0.486275 0.196078
0.882353 0.498039 0.203922
0.894118 0.517647 0.188235
0.909804 0.533333 0.196078
0.921569 0.545098 0.207843
0.952941 0.560784 0.223529
1.000000 0.650980 0.211765
0.607843 0.419608 0.086275
0.192157 0.513725 0.129412
0.321569 0.509804 0.117647
0.337255 0.509804 0.125490
0.341176 0.505882 0.121569
0.372549 0.509804 0.109804
0.403922 0.509804 0.090196
0.427451 0.505882 0.054902
0.458824 0.498039 0.015686
0.501961 0.498039 0.003922
0.533333 0.490196 0.000000
0.560784 0.482353 0.000000
0.600000 0.474510 0.000000
0.631373 0.466667 0.000000
0.658824 0.458824 0.031373
0.674510 0.454902 0.082353
0.686275 0.439216 0.125490
0.713725 0.439216 0.156863
0.741176 0.439216 0.172549
0.756863 0.427451 0.176471
0.768627 0.435294 0.180392
0.792157 0.439216 0.192157
0.807843 0.447059 0.192157
0.823529 0.458824 0.196078
0.839216 0.474510 0.203922
0.862745 0.482353 0.203922
0.878431 0.490196 0.223529
0.898039 0.501961 0.219608
0.921569 0.525490 0.211765
0.925490 0.537255 0.203922
0.949020 0.560784 0.227451
1.000000 0.639216 0.250980
0.588235 0.462745 0.000000
0.274510 0.525490 0.149020
0.368627 0.533333 0.149020
0.368627 0.533333 0.133333
0.380392 0.529412 0.141176
0.400000 0.529412 0.109804
0.415686 0.529412 0.098039
0.439216 0.529412 0.070588
0.482353 0.521569 0.039216
0.505882 0.525490 0.019608
0.537255 0.521569 0.000000
0.568627 0.509804 0.003922
0.600000 0.501961 0.003922
0.627451 0.498039 0.000000
0.654902 0.482353 0.007843
0.674510 0.474510 0.047059
0.701961 0.470588 0.117647
0.709804 0.466667 0.141176
0.733333 0.458824 0.176471
0.756863 0.450980 0.192157
0.768627 0.450980 0.196078
0.784314 0.450980 0.196078
0.807843 0.454902 0.207843
0.827451 0.466667 0.219608
0.843137 0.478431 0.215686
0.866667 0.482353 0.235294
0.878431 0.498039 0.227451
0.890196 0.501961 0.235294
0.917647 0.525490 0.231373
0.937255 0.537255 0.247059
0.960784 0.556863 0.247059
1.000000 0.619608 0.262745
0.545098 0.505882 0.000000
0.313725 0.549020 0.164706
0.384314 0.549020 0.156863
0.396078 0.541176 0.164706
0.400000 0.549020 0.152941
0.403922 0.549020 0.137255
0.439216 0.545098 0.125490
0.447059 0.549020 0.117647
0.498039 0.541176 0.070588
0.517647 0.541176 0.015686
0.549020 0.541176 0.003922
0.584314 0.537255 0.011765
0.607843 0.517647 0.000000
0.635294 0.517647 0.000000
0.654902 0.509804 0.000000
0.678431 0.501961 0.003922
0.701961 0.494118 0.094118
0.717647 0.486275 0.133333
0.737255 0.482353 0.168627
0.760784 0.478431 0.188235
0.780392 0.470588 0.200000
0.796078 0.470588 0.211765
0.815686 0.470588 0.219608
0.827451 0.474510 0.227451
0.847059 0.486275 0.231373
0.862745 0.490196 0.239216
0.878431 0.494118 0.239216
0.898039 0.509804 0.247059
0.917647 0.521569 0.247059
0.941176 0.541176 0.250980
0.960784 0.556863 0.254902
1.000000 0.600000 0.290196
0.505882 0.533333 0.015686
0.372549 0.572549 0.160784
0.407843 0.568627 0.160784
0.419608 0.564706 0.160784
0.439216 0.568627 0.149020
0.439216 0.560784 0.152941
0.454902 0.560784 0.141176
0.470588 0.568627 0.109804
0.490196 0.560784 0.082353
0.513725 0.560784 0.058824
0.545098 0.560784 0.023529
0.572549 0.560784 0.007843
0.596078 0.552941 0.000000
0.627451 0.541176 0.003922
0.658824 0.533333 0.003922
0.674510 0.525490 0.000000
0.701961 0.517647 0.007843
0.717647 0.505882 0.078431
0.741176 0.501961 0.137255
0.760784 0.501961 0.172549
0.780392 0.501961 0.196078
0.800000 0.494118 0.211765
0.815686 0.482353 0.219608
0.835294 0.482353 0.235294
0.850980 0.482353 0.239216
0.870588 0.486275 0.247059
0.882353 0.498039 0.243137
0.905882 0.509804 0.243137
0.921569 0.525490 0.258824
0.945098 0.533333 0.266667
0.968627 0.564706 0.270588
1.000000 0.588235 0.290196
0.482353 0.560784 0.086275
0.419608 0.584314 0.184314
0.443137 0.580392 0.172549
0.443137 0.584314 0.168627
0.454902 0.584314 0.172549
0.466667 0.576471 0.145098
0.486275 0.580392 0.141176
0.501961 0.580392 0.137255
0.509804 0.580392 0.117647
0.537255 0.576471 0.094118
0.552941 0.576471 0.050980
0.568627 0.576471 0.015686
0.596078 0.564706 0.000000
0.623529 0.556863 0.000000
0.654902 0.556863 0.000000
0.682353 0.552941 0.007843
0.705882 0.545098 0.000000
0.725490 0.537255 0.043137
0.741176 0.529412 0.105882
0.752941 0.525490 0.137255
0.776471 0.525490 0.180392
0.788235 0.517647 0.211765
0.811765 0.509804 0.227451
0.835294 0.509804 0.235294
0.850980 0.509804 0.247059
0.870588 0.513725 0.239216
0.878431 0.505882 0.247059
0.901961 0.513725 0.250980
0.925490 0.529412 0.262745
0.949020 0.537255 0.282353
0.960784 0.549020 0.282353
0.996078 0.588235 0.301961
0.486275 0.576471 0.121569
0.427451 0.592157 0.192157
0.447059 0.592157 0.188235
0.466667 0.596078 0.188235
0.466667 0.596078 0.184314
0.474510 0.588235 0.172549
0.486275 0.596078 0.164706
0.498039 0.592157 0.152941
0.513725 0.592157 0.141176
0.533333 0.592157 0.125490
0.549020 0.588235 0.098039
0.568627 0.592157 0.058824
0.596078 0.584314 0.023529
0.623529 0.584314 0.007843
0.647059 0.580392 0.000000
0.674510 0.572549 0.003922
0.701961 0.564706 0.000000
0.721569 0.560784 0.003922
0.737255 0.552941 0.043137
0.752941 0.545098 0.105882
0.768627 0.537255 0.145098
0.792157 0.533333 0.192157
0.800000 0.533333 0.215686
0.815686 0.529412 0.227451
0.839216 0.525490 0.254902
0.862745 0.521569 0.250980
0.886275 0.521569 0.258824
0.894118 0.521569 0.262745
0.921569 0.533333 0.270588
0.945098 0.541176 0.278431
0.976471 0.556863 0.282353
0.992157 0.564706 0.294118
0.419608 0.635294 0.266667
0.419608 0.631373 0.262745
0.431373 0.631373 0.266667
0.443137 0.627451 0.258824
0.443137 0.627451 0.258824
0.450980 0.627451 0.262745
0.458824 0.631373 0.258824
0.474510 0.627451 0.262745
0.486275 0.631373 0.254902
0.505882 0.631373 0.243137
0.525490 0.631373 0.227451
0.545098 0.631373 0.207843
0.564706 0.631373 0.184314
0.584314 0.627451 0.156863
0.607843 0.627451 0.125490
0.639216 0.623529 0.101961
0.678431 0.619608 0.058824
0.698039 0.615686 0.015686
0.725490 0.611765 0.000000
0.749020 0.603922 0.054902
0.768627 0.596078 0.113725
0.780392 0.592157 0.168627
0.803922 0.588235 0.196078
0.823529 0.584314 0.235294
0.843137 0.580392 0.262745
0.862745 0.576471 0.274510
0.882353 0.572549 0.301961
0.905882 0.576471 0.301961
0.921569 0.580392 0.309804
0.945098 0.580392 0.317647
0.972549 0.580392 0.337255
0.996078 0.623529 0.364706
0.576471 0.623529 0.137255
0.372549 0.650980 0.274510
0.435294 0.635294 0.270588
0.462745 0.643137 0.290196
0.450980 0.647059 0.274510
0.454902 0.650980 0.278431
0.474510 0.643137 0.282353
0.486275 0.639216 0.274510
0.494118 0.639216 0.266667
0.509804 0.643137 0.262745
0.521569 0.639216 0.247059
0.537255 0.639216 0.243137
0.564706 0.639216 0.219608
0.588235 0.643137 0.196078
0.607843 0.639216 0.160784
0.635294 0.639216 0.129412
0.666667 0.635294 0.105882
0.690196 0.631373 0.070588
0.713725 0.631373 0.031373
0.737255 0.623529 0.019608
0.760784 0.615686 0.066667
0.788235 0.615686 0.125490
0.807843 0.611765 0.168627
0.827451 0.603922 0.200000
0.839216 0.600000 0.243137
0.862745 0.596078 0.262745
0.878431 0.600000 0.294118
0.901961 0.592157 0.298039
0.917647 0.596078 0.309804
0.952941 0.596078 0.317647
0.980392 0.596078 0.341176
1.000000 0.623529 0.356863
0.568627 0.639216 0.168627
0.380392 0.658824 0.290196
0.458824 0.658824 0.298039
0.458824 0.650980 0.290196
0.462745 0.662745 0.290196
0.466667 0.662745 0.282353
0.482353 0.658824 0.294118
0.494118 0.654902 0.286275
0.498039 0.654902 0.278431
0.517647 0.658824 0.282353
0.525490 0.662745 0.270588
0.541176 0.662745 0.254902
0.568627 0.658824 0.235294
0.588235 0.658824 0.227451
0.607843 0.658824 0.203922
0.635294 0.658824 0.180392
0.662745 0.650980 0.137255
0.686275 0.654902 0.117647
0.713725 0.650980 0.074510
0.737255 0.647059 0.035294
0.756863 0.643137 0.039216
0.780392 0.635294 0.074510
0.807843 0.631373 0.133333
0.827451 0.627451 0.164706
0.839216 0.627451 0.211765
0.870588 0.623529 0.243137
0.882353 0.619608 0.262745
0.909804 0.615686 0.290196
0.925490 0.615686 0.305882
0.952941 0.627451 0.329412
0.976471 0.615686 0.321569
1.000000 0.619608 0.364706
0.568627 0.666667 0.207843
0.439216 0.674510 0.298039
0.486275 0.670588 0.294118
0.478431 0.682353 0.298039
0.498039 0.678431 0.294118
0.501961 0.674510 0.294118
0.509804 0.670588 0.294118
0.517647 0.674510 0.298039
0.533333 0.674510 0.282353
0.537255 0.674510 0.282353
0.552941 0.674510 0.270588
0.568627 0.674510 0.262745
0.584314 0.674510 0.250980
0.603922 0.674510 0.243137
0.631373 0.674510 0.211765
0.643137 0.678431 0.188235
0.670588 0.674510 0.164706
0.690196 0.678431 0.125490
0.717647 0.670588 0.090196
0.749020 0.666667 0.058824
0.776471 0.666667 0.043137
0.796078 0.658824 0.047059
0.819608 0.650980 0.098039
0.835294 0.647059 0.152941
0.850980 0.643137 0.188235
0.874510 0.647059 0.227451
0.886275 0.643137 0.254902
0.913725 0.639216 0.266667
0.933333 0.643137 0.301961
0.949020 0.643137 0.321569
0.984314 0.643137 0.333333
1.000000 0.639216 0.368627
0.545098 0.686275 0.262745
0.454902 0.690196 0.305882
0.490196 0.694118 0.298039
0.505882 0.690196 0.313725
0.498039 0.694118 0.313725
0.509804 0.690196 0.305882
0.525490 0.686275 0.309804
0.533333 0.690196 0.313725
0.556863 0.694118 0.286275
0.564706 0.686275 0.282353
0.580392 0.690196 0.286275
0.584314 0.694118 0.262745
0.603922 0.698039 0.258824
0.619608 0.694118 0.243137
0.643137 0.694118 0.231373
0.666667 0.690196 0.211765
0.686275 0.698039 0.184314
0.705882 0.694118 0.149020
0.737255 0.690196 0.117647
0.768627 0.686275 0.086275
0.784314 0.682353 0.058824
0.807843 0.682353 0.050980
0.831373 0.678431 0.078431
0.850980 0.670588 0.129412
0.874510 0.670588 0.141176
0.886275 0.666667 0.192157
0.905882 0.662745 0.219608
0.933333 0.666667 0.270588
0.945098 0.658824 0.290196
0.972549 0.658824 0.309804
0.984314 0.662745 0.325490
0.992157 0.666667 0.368627
0.552941 0.698039 0.250980
0.498039 0.709804 0.325490
0.529412 0.705882 0.309804
0.541176 0.705882 0.305882
0.541176 0.705882 0.305882
0.533333 0.709804 0.298039
0.545098 0.713725 0.301961
0.556863 0.705882 0.301961
0.560784 0.713725 0.294118
0.568627 0.709804 0.294118
0.592157 0.705882 0.290196
0.603922 0.705882 0.278431
0.615686 0.709804 0.270588
0.631373 0.713725 0.247059
0.650980 0.713725 0.227451
0.662745 0.709804 0.215686
0.686275 0.713725 0.196078
0.709804 0.713725 0.164706
0.737255 0.713725 0.133333
0.760784 0.709804 0.098039
0.788235 0.701961 0.062745
0.827451 0.705882 0.015686
0.847059 0.698039 0.027451
0.854902 0.698039 0.078431
0.878431 0.690196 0.125490
0.898039 0.690196 0.172549
0.921569 0.686275 0.215686
0.929412 0.686275 0.250980
0.960784 0.678431 0.278431
0.972549 0.682353 0.294118
1.000000 0.682353 0.321569
1.000000 0.682353 0.352941
0.568627 0.725490 0.278431
0.537255 0.721569 0.321569
0.560784 0.729412 0.309804
0.568627 0.729412 0.313725
0.568627 0.729412 0.321569
0.568627 0.729412 0.313725
0.580392 0.725490 0.309804
0.584314 0.725490 0.309804
0.588235 0.729412 0.305882
0.603922 0.729412 0.294118
0.615686 0.725490 0.290196
0.623529 0.729412 0.286275
0.643137 0.733333 0.278431
0.654902 0.733333 0.258824
0.670588 0.733333 0.243137
0.690196 0.733333 0.223529
0.705882 0.737255 0.207843
0.725490 0.737255 0.184314
0.752941 0.737255 0.145098
0.772549 0.729412 0.125490
0.803922 0.733333 0.105882
0.823529 0.729412 0.070588
0.847059 0.717647 0.031373
0.862745 0.717647 0.027451
0.890196 0.717647 0.086275
0.905882 0.709804 0.133333
0.925490 0.705882 0.176471
0.949020 0.709804 0.211765
0.964706 0.709804 0.247059
0.988235 0.709804 0.286275
0.992157 0.705882 0.305882
1.000000 0.709804 0.337255
0.576471 0.745098 0.294118
0.556863 0.749020 0.337255
0.576471 0.745098 0.325490
0.572549 0.741176 0.321569
0.584314 0.749020 0.325490
0.584314 0.756863 0.321569
0.592157 0.745098 0.317647
0.596078 0.745098 0.309804
0.600000 0.749020 0.313725
0.607843 0.752941 0.309804
0.619608 0.752941 0.309804
0.635294 0.756863 0.298039
0.650980 0.749020 0.286275
0.666667 0.749020 0.274510
0.678431 0.752941 0.262745
0.694118 0.752941 0.254902
0.717647 0.756863 0.235294
0.741176 0.756863 0.211765
0.756863 0.756863 0.184314
0.776471 0.752941 0.164706
0.803922 0.752941 0.133333
0.823529 0.752941 0.094118
0.847059 0.745098 0.058824
0.866667 0.741176 0.023529
0.894118 0.741176 0.031373
0.905882 0.741176 0.074510
0.921569 0.729412 0.121569
0.945098 0.729412 0.172549
0.956863 0.721569 0.203922
0.984314 0.725490 0.247059
0.996078 0.721569 0.274510
1.000000 0.725490 0.301961
0.600000 0.803922 0.278431
0.615686 0.800000 0.282353
0.615686 0.803922 0.274510
0.600000 0.803922 0.270588
0.596078 0.807843 0.270588
0.600000 0.803922 0.266667
0.600000 0.800000 0.262745
0.603922 0.803922 0.266667
0.603922 0.803922 0.266667
0.615686 0.800000 0.250980
0.623529 0.800000 0.239216
0.631373 0.803922 0.235294
0.650980 0.800000 0.223529
0.662745 0.800000 0.203922
0.674510 0.800000 0.176471
0.694118 0.796078 0.164706
0.705882 0.796078 0.145098
0.729412 0.796078 0.105882
0.756863 0.796078 0.070588
0.780392 0.796078 0.007843
0.796078 0.792157 0.000000
0.819608 0.784314 0.000000
0.847059 0.776471 0.000000
0.866667 0.772549 0.003922
0.894118 0.768627 0.000000
0.909804 0.768627 0.000000
0.929412 0.760784 0.003922
0.945098 0.752941 0.003922
0.960784 0.752941 0.070588
0.988235 0.756863 0.152941
1.000000 0.749020 0.184314
0.996078 0.745098 0.313725
0.678431 0.800000 0.149020
0.560784 0.819608 0.294118
0.619608 0.815686 0.286275
0.615686 0.815686 0.270588
0.615686 0.819608 0.294118
0.607843 0.819608 0.270588
0.615686 0.819608 0.282353
0.611765 0.819608 0.270588
0.619608 0.819608 0.266667
0.631373 0.819608 0.254902
0.631373 0.819608 0.254902
0.643137 0.819608 0.250980
0.650980 0.815686 0.235294
0.666667 0.819608 0.227451
0.678431 0.815686 0.203922
0.698039 0.815686 0.188235
0.709804 0.803922 0.176471
0.737255 0.811765 0.149020
0.752941 0.815686 0.094118
0.776471 0.815686 0.050980
0.803922 0.811765 0.007843
0.831373 0.807843 0.000000
0.847059 0.803922 0.003922
0.870588 0.803922 0.003922
0.886275 0.796078 0.000000
0.905882 0.796078 0.000000
0.933333 0.788235 0.000000
0.952941 0.780392 0.007843
0.968627 0.776471 0.000000
0.984314 0.776471 0.078431
1.000000 0.772549 0.137255
1.000000 0.764706 0.286275
0.690196 0.819608 0.172549
0.572549 0.831373 0.298039
0.631373 0.831373 0.294118
0.631373 0.827451 0.298039
0.631373 0.827451 0.298039
0.627451 0.839216 0.298039
0.623529 0.835294 0.294118
0.627451 0.831373 0.294118
0.635294 0.835294 0.282353
0.643137 0.835294 0.282353
0.647059 0.839216 0.278431
0.650980 0.839216 0.266667
0.666667 0.839216 0.262745
0.670588 0.835294 0.254902
0.682353 0.835294 0.227451
0.713725 0.831373 0.211765
0.721569 0.835294 0.184314
0.741176 0.831373 0.164706
0.760784 0.827451 0.137255
0.788235 0.831373 0.094118
0.811765 0.827451 0.047059
0.835294 0.827451 0.007843
0.850980 0.823529 0.000000
0.878431 0.819608 0.007843
0.901961 0.823529 0.003922
0.913725 0.811765 0.000000
0.929412 0.819608 0.003922
0.945098 0.807843 0.000000
0.968627 0.803922 0.000000
0.984314 0.792157 0.011765
1.000000 0.800000 0.058824
1.000000 0.800000 0.247059
0.662745 0.839216 0.231373
0.588235 0.847059 0.321569
0.623529 0.850980 0.309804
0.627451 0.847059 0.317647
0.627451 0.847059 0.309804
0.619608 0.847059 0.313725
0.627451 0.847059 0.317647
0.635294 0.847059 0.305882
0.627451 0.858824 0.301961
0.631373 0.854902 0.301961
0.647059 0.854902 0.298039
0.654902 0.858824 0.294118
0.662745 0.858824 0.282353
0.674510 0.854902 0.274510
0.694118 0.850980 0.258824
0.709804 0.854902 0.239216
0.725490 0.843137 0.231373
0.741176 0.847059 0.200000
0.760784 0.847059 0.168627
0.780392 0.850980 0.145098
0.803922 0.847059 0.101961
0.835294 0.847059 0.043137
